patrick-kearney/my_repo/schools_posterior.csv
draws,lp__,accept_stat__,stepsize__,treedepth__,n_leapfrog__,divergent__,energy__,mu,tau,eta.1,eta.2,eta.3,eta.4,eta.5,eta.6,eta.7,eta.8,theta.1,theta.2,theta.3,theta.4,theta.5,theta.6,theta.7,theta.8
0,-35.03393314151826,0.8111815873715108,0.32450183095339463,3.0,15.0,0.0,38.999974635140006,0.2441595887336918,14.042551096147108,1.2461580632846712,0.9526482083717345,0.5076858173576869,-0.09428291203598704,-0.19049003349313248,0.05926068377918223,0.7444513307117251,0.04426748081197318,17.743397866284408,13.62177073144677,7.373363619768218,-1.0798130210251993,-2.430806439900395,1.0763307686954744,10.698155438847799,0.8657879499335368
1,-42.156608223856566,0.8962793403760084,0.36533586583332056,3.0,15.0,0.0,45.725760741661546,17.37357074594259,12.038273245050364,-0.4389584399108918,-1.6726118902510299,0.5138958733663244,-1.751606939284823,-2.1862168696570956,-0.3287656496392494,0.520775238937653,-0.3104405676385691,12.089269103074255,-2.761788221819497,23.559989689030203,-3.7127522070944536,-8.944705303928185,13.415800021998812,23.64280537153045,13.636402366360956
2,-40.72622876732479,0.977041952108061,0.3470325062439781,3.0,7.0,0.0,44.24914168317898,9.873555913193897,2.0195411968880705,0.571200655380619,0.8862604765006641,-1.8623214004559976,0.17067060205762946,-0.7047243266181986,-1.502691331767023,-0.5295238904831454,1.3468466468908302,11.027119168424523,11.66339545666064,6.112521123126724,10.21823222514697,8.450336103139241,6.838808862483795,8.804160601626737,12.593568202480489
3,-46.52723276482593,0.8326297132229248,0.3037260837296746,4.0,15.0,0.0,50.14822300254776,1.3175676702627475,0.4536647712690417,0.8912930012048447,-0.5903508851718335,0.6167370952037808,-2.694956203288709,0.2925498116683965,2.4476224037846492,0.2063731334919413,-0.009130749740353522,1.721915905788041,1.0497462709727912,1.5973595634915039,0.09496098071769032,1.4502872136580918,2.4279677282286922,1.4111918906644445,1.3134253707702752
4,-35.19853864483687,0.8764824066021369,0.32450183095339463,3.0,15.0,0.0,36.836277204529125,1.2475165246631805,17.81491977074003,0.5672556453267089,-0.36289383017264176,-0.8091320463288532,0.5114444393372926,0.20534440640699272,-0.03704660311564183,0.33199160498985536,0.18259571503580735,11.353130335657863,-5.21740794515899,-13.167105964620042,10.358858178648163,4.90571065017399,0.5875342623795737,7.161920332116669,4.500444538506997
5,-41.15366108980403,1.0,0.36533586583332056,3.0,7.0,0.0,44.20506562009064,19.060445925577145,8.442357099567086,-0.4462439223369434,-1.3188781185063734,0.4691597503843581,-1.6889868942582749,-2.4407730498880325,-0.7801341311610173,0.6313666557753688,-0.5798652040502024,15.293095379697188,7.926005878341183,23.02126007506565,4.801415427760034,-1.5454317605770953,12.47427500475533,24.390668694392257,14.165016803372001
6,-40.060099901747165,0.435181647026592,0.3470325062439781,3.0,15.0,0.0,46.272449781121736,8.989798494895847,15.745875414596366,1.9230934447834762,0.7856394493123436,-0.2087742683330922,-0.12403646929261729,0.0199713490717654,-0.3393642402241471,1.7218499855321767,1.0130712535046533,39.27058828708342,21.360379384560105,5.702464875949467,7.036735702547888,9.30426486924128,3.646211448157275,36.10183384971006,24.94149223868909
7,-45.440635834062284,0.956034412401024,0.3037260837296746,4.0,15.0,0.0,56.23342956303285,10.757270603796885,1.258984952758487,1.191705310706385,0.10758467200226113,1.2299692841230856,-3.4940332349021648,0.020057936973240542,1.0932399865476228,0.5820631008626089,-0.19403310224069345,12.257609658098602,10.892718086995188,12.305783424862977,6.358335336616999,10.782523244629573,12.133643296614233,11.490079289338855,10.512985847738802
8,-34.216009605971045,0.9391063459651061,0.32450183095339463,4.0,15.0,0.0,36.3822071970085,14.21162990300247,12.684003787982132,0.5313646910388736,-0.5353752209529699,-0.7411040606208703,-0.18265930498288646,-0.6787424003728432,-0.4809488563329265,0.10112112246064661,-0.704073047007524,20.951461656939497,7.420928572443229,4.811463190798412,11.894778586689354,5.602458725609242,8.111272787449956,15.494250603338315,5.281164707742914
9,-45.16340837473009,0.7006785428661287,0.36533586583332056,4.0,15.0,0.0,52.13829852756596,4.846758706139208,2.051553918515728,1.4122374803664304,2.712017888077174,1.7440277853090729,-0.21746732857376838,-1.7704370723337308,-0.708321252433673,-0.4144840387192779,1.2620066976595363,7.744040042859737,10.410609631508684,8.424725743090343,4.400612756054546,1.214611592907429,3.393599465140938,3.9964223523424485,7.435833491915723
10,-39.392205830702196,1.0,0.3470325062439781,3.0,7.0,0.0,42.9024052177652,3.428915449794009,1.7487001252533807,-0.18488106100429214,0.5601464080753953,1.4576094693479937,0.7671692525628041,-0.42063112828747495,-0.3164641419653048,-0.29830060057714464,-1.040510924515179,3.1056139152588256,4.408443543755684,5.97783731141336,4.7704644178411275,2.6933577430722306,2.875514565101077,2.9072771522015977,1.6093738657668049
11,-38.962320467106515,0.9996563930592551,0.3037260837296746,3.0,7.0,0.0,48.53194038743143,9.085118045014788,8.294189182365121,0.14356454955816528,0.5775785871395651,0.7502851774435462,-1.387192654368597,0.6593542180213054,-1.3987605888754957,0.7933055568619144,0.060705464426696956,10.275869578931244,13.8756641144335,15.308125247455944,-2.4205202627055886,14.553926667473913,-2.516466899955015,15.664944413049017,9.588620651373148
12,-36.654563532505506,0.4243208280125344,0.32450183095339463,3.0,7.0,0.0,40.09634915955793,6.9775406445911745,10.047700652194987,0.40205068093350194,-1.2918901959051574,-0.7972964149638535,-0.34170403831206236,-0.14432924413635875,0.253240762221249,0.03040348345243662,-0.2906580805115746,11.01722553362216,-6.002985319369385,-1.033455064033861,3.544200755985405,5.527363604151473,9.522028016323974,7.283025745105221,4.057095259469284
13,-43.4854553577384,0.999954440459676,0.36533586583332056,3.0,7.0,0.0,48.12410727694675,6.035137480810398,2.5530132591023245,1.2125771016176745,2.104945891746585,1.5829344928998408,-0.5798879070265992,-2.010978838643288,-0.9183732722555348,-0.3986683544860315,1.216719038276765,9.130862898924189,11.409092252132396,10.076390229474107,4.554675965378395,0.9010818419798907,3.6905183399368293,5.0173318858230544,9.141437318133208
14,-40.16566112796719,0.987532660899898,0.3470325062439781,3.0,15.0,0.0,43.70882894515133,10.077301322263928,3.7883688005796565,-0.1085218118634513,-0.35863223922410137,1.6798537091997072,1.7874833831776058,-0.38181141104155475,0.19943428144157932,1.1171550549361526,-0.4065394195287228,9.666180676018053,8.718670136305322,16.44120670373411,16.84894760264854,8.630858884968807,10.832831931843229,14.3094966777939,8.53718006911555
15,-40.79860519350626,0.7529878839602795,0.3037260837296746,4.0,15.0,0.0,44.881808756215165,5.272915746900299,0.8971531625959286,-0.34544816612664886,-1.0208087721823984,-0.23455381352147947,1.8028598562183928,-0.8911275825360414,0.6037096858456674,-0.14882208027640298,1.1521582392781666,4.962995832146812,4.357093928531194,5.062485051300568,6.890357168623871,4.473437817951625,5.814535800846534,5.139399546916219,6.306578155079663
16,-35.93102489052626,0.9921907202738949,0.32450183095339463,3.0,7.0,0.0,38.73315436512339,9.337861163649665,8.399328433188419,0.15179374851936178,0.8127963094478152,-0.060724943178222454,0.08318260750189135,-1.0894099867432143,-1.0904481183283936,0.6707835307510635,0.6898651213816552,10.612826711568593,16.16480431598531,8.82781242180907,10.036539203987052,0.1875488865979662,0.17882927845717944,14.97199234600159,15.13226489273558
17,-39.50376838494782,0.9934516763379548,0.36533586583332056,3.0,7.0,0.0,46.84692343079667,7.320135402161243,4.794750037132832,-0.43670409642263486,0.7943076424543971,1.0213967614080004,0.06774705379214643,0.2334348971955138,1.8259338313345737,0.7449315514077653,0.40997430350601777,5.226248419622754,11.128642000314356,12.217477561849607,7.644965590846777,8.439397384157532,16.075031707754786,10.891895985935044,9.285859709120228
18,-40.53272209669874,0.8551404010869406,0.3470325062439781,4.0,15.0,0.0,45.49716317000538,8.76086411961154,2.128632261911169,0.32193195150667997,0.3838959767828443,-1.8491015870930605,-1.665308376747246,0.3574192514642498,-0.39601200964760186,-0.9817225694222134,0.8168186818684389,9.44613885772868,9.578037481009403,4.824806825774107,5.216034982836433,9.521678269306483,7.917900179771378,6.671137786093089,10.499570717968455
19,-38.558739805226416,0.6753101400870664,0.3037260837296746,3.0,15.0,0.0,45.03965103758503,5.246735852471058,2.241439876300468,1.0396431890907587,0.08512558733549896,-0.3050539152616041,0.5812321190480119,0.37394053063008625,-1.6056988734227975,0.9538736292743228,0.4976851820631221,7.577033553623273,5.4375397384183435,4.562975842382115,6.549532701491893,6.08490106919029,1.6476583682504624,7.3847862420779755,6.362267265391199
20,-38.28845260535763,0.9315830918441574,0.32450183095339463,4.0,15.0,0.0,44.218650636422595,3.84429215491058,3.213190775020098,-0.41079979520836996,-0.16758268423196865,0.28582379115007567,0.5125131748208174,1.207599289168878,0.911563923769165,0.3201815060449393,-0.28691169971421704,2.5243140425669006,3.3058170198833126,4.762698523915274,5.491094760321094,7.724539050788847,6.773320945606785,4.873096416466221,2.9223901281435216
21,-39.97739340313029,0.9170829021571064,0.36533586583332056,4.0,15.0,0.0,45.67279944378254,15.533846993843179,4.147504219591095,-1.1289080482844833,0.4488208812805316,-1.0744325391143605,-0.7276523243685025,0.43098904322673937,-1.1885502226377778,0.5910539735383787,-0.4672193066207023,10.851696100052937,17.395333492794776,11.077633504200394,12.515905908129547,17.32137586922361,10.604329930257059,17.985245843099687,13.59605294815939
22,-40.127736668249895,0.9870358108050042,0.3470325062439781,4.0,15.0,0.0,44.57971392784393,8.868417028019985,5.772427956988097,0.11513103949669629,-1.4065732627326295,0.5307473959983081,1.290131784310735,-1.6199316961283214,-0.8203789906489056,1.5237870117512204,-0.9561087711214821,9.533002659127815,0.7490742026701902,11.932118134779252,16.31560980797421,-0.4825219831222842,4.1328384070725654,17.66436777514808,3.3493480276768084
23,-37.797629442947155,0.5039589504740539,0.3037260837296746,4.0,15.0,0.0,42.87605962888568,8.450320676862434,5.207368039763338,1.4133741681280876,0.6127629691522303,-0.5853577422623727,0.049001980137091894,0.0319118865388173,-1.2862762531489806,1.6412975126138423,-0.3751818422363225,15.810280148199732,11.641202978376246,5.402147477977329,8.705492022113445,8.616497614913225,1.7522068259078951,16.99716088779082,6.496610742501478
24,-38.21163349287579,0.9392403423530509,0.32450183095339463,3.0,7.0,0.0,43.77577789259574,-0.13734153293605367,7.5219974882624285,0.6474524026799615,0.047073758847707675,-1.4323915054343281,0.5438164873652885,0.25803163841852333,-0.8201979817928005,0.005527204810155728,-0.009863572965874784,4.7327938137920915,0.21674716287947476,-10.91178683902151,3.9532447191013436,1.803571803140318,-6.306868691859412,-0.09576591223695027,-0.21153530401065698
25,-39.46630165143476,0.9580250242619631,0.36533586583332056,4.0,15.0,0.0,44.562962378271216,-1.9677852803364342,16.89198895667988,1.8791156655747172,-0.5493371727135162,1.0871584403983563,0.18603860733584737,0.5697373134543796,0.676782195661684,1.353399604392349,0.07065149300060036,29.774215790875857,-11.247182735306898,16.39648308903392,1.1747768202968043,7.656211126743411,9.464412094858295,20.893825891034048,-0.774341040797347
26,-36.61599975429273,0.9838594363776197,0.3470325062439781,3.0,7.0,0.0,43.69226435398254,4.100537374714959,9.016903003695333,1.0786740995879645,-0.3325685201567664,0.28342879401409204,-0.37547889067375007,-0.43504538409091287,-1.4867873542800756,0.7426454267492939,-0.23590837810587773,13.826837103298034,1.1017992863789,6.656187318794371,0.7148806375746304,0.17777534416181684,-9.305679985949292,10.79689915385127,1.9733744115751755
27,-39.59739001349876,0.38701177627226696,0.3037260837296746,4.0,15.0,0.0,43.571615712378645,9.811815906310773,1.9969214358808978,1.3473806379631732,-0.16621252752517957,-1.0430098586301069,-0.47946958661706435,-0.13424768914188073,-1.9219258325899777,0.6668430348015367,-0.5192970230399406,12.502429184550312,9.479902547183798,7.729007161777208,8.854352810942204,9.543733818145876,5.973881013038605,11.143449056873834,8.77482054941318
28,-42.95079783883188,0.4865041883319277,0.32450183095339463,4.0,15.0,0.0,46.48599466352064,4.635136686680319,0.24279506770273657,-1.22461242031876,-0.5280308749895011,2.024381899098873,-0.18832516008975636,-1.449630677594567,0.5989705561105088,0.1739271567782038,0.05123958098444854,4.337806831179414,4.506933394638108,5.126646626928224,4.589412266686198,4.283173508169782,4.780563783403116,4.677365342485627,4.647577404214498
29,-41.544817601775115,0.833938764678222,0.36533586583332056,3.0,7.0,0.0,47.08948858625841,-3.539218084953937,8.584428522965492,2.4687946706014707,-0.48862095821714285,0.05026699598643691,1.2816190520653032,-1.0474842047009298,0.7926275468284846,1.1425930193964589,0.9168911694809764,17.653973302702525,-7.7337497755919085,-3.1077046508441764,7.462749061171449,-12.531271369144424,3.265036436128672,6.269290020894289,4.331768622793744
30,-39.12061123418614,0.9672983062030404,0.3470325062439781,3.0,7.0,0.0,41.54020945344116,12.137344342230381,9.151501756888216,0.49432479067112933,1.3434948555348951,-1.8771995319841583,0.26475869055833035,-0.6490373010357844,-1.0178751731203843,0.2063995415107624,-1.1292615694580905,16.66115853253062,24.432339873028255,-5.04185047275238,14.560283964026365,6.197678341515415,2.8222579071262874,14.026210108987046,1.802905105348323
31,-40.571776919905034,0.8076103830990927,0.3037260837296746,3.0,7.0,0.0,41.897563603823635,8.247957541698026,1.4560204944098158,1.4253546740628995,-0.03979934485296638,-1.26150850926216,-0.4692668644340232,-0.19270436831801377,-1.9400408343828033,0.7703305081563516,-0.7751609174566296,10.323303158936431,8.190008879928024,6.411175298339947,7.564695369734656,7.967376032064701,5.423218326844745,9.369574549042802,7.119307359415658
32,-44.60874642686074,0.9170250660735062,0.32450183095339463,3.0,7.0,0.0,49.71442808919098,1.7603878019193488,11.90690060243417,-1.1971646727405032,-0.5195760158782458,2.155399805891312,-0.7175558180167206,-0.9062225739392726,0.07773802965773835,0.41661068430066095,-0.39913808948873847,-12.494132961147455,-4.426152174551682,27.424519049173107,-6.783477999904086,-9.029914309657622,2.686006794083119,6.720929809799401,-2.9921097562685346
33,-39.68983737820238,0.9968146758674985,0.36533586583332056,3.0,7.0,0.0,44.470397792978964,-1.3691877142500388,9.668676559740254,2.13975844817952,-0.006061913129727148,0.2279913180696355,1.503732003839126,-0.9897798824677971,0.5003714588212934,0.9825127355580056,1.2818411409102464,19.319444637169468,-1.4277983916346133,0.8351865985941305,13.16991066340056,-10.939049263168892,3.468742080818436,8.130410141685925,11.024519678179564
34,-39.39728285353031,0.9913814878806702,0.3470325062439781,4.0,15.0,0.0,43.019867665446824,7.329814115219408,4.713402798327883,0.268568092817029,1.7711591387999723,-1.34492786805404,0.7390328299284816,-1.4278103559609394,-0.8845576243320059,0.06537022504306209,-0.6267401285659315,8.595683715444775,15.678000556323202,0.9906273383843418,10.813173523860488,0.5999687879515854,3.160537733410667,7.637930316864701,4.375735439412368
35,-36.526614367844765,0.979628048920029,0.3037260837296746,4.0,15.0,0.0,44.87457804329695,8.3209313058177,7.953002767859086,0.7781792559185167,-0.7663287846995461,-0.7670760774099592,0.5838972596470786,-0.5145019853758581,-0.19946791640148753,-0.39139444312170724,-1.026935248266633,14.509793082028187,2.2263163600121194,2.220373139017804,12.964667827936251,4.229095592054505,6.734562414577585,5.208170216346097,0.15371243394110934
36,-40.37508799280112,1.0,0.32450183095339463,3.0,7.0,0.0,47.640529800066936,4.974239930394866,0.19149478030051117,-0.48476810699513945,1.3634359560160916,0.17368703771058513,0.2659117132889863,-0.18481616141424023,-0.7082502058313185,0.2056747093818747,-0.4391035431115199,4.881409368249137,5.235330799245984,5.007500091522301,5.025160635510473,4.938848600168862,4.838613712831406,5.01362556368132,4.8901538938775495
37,-38.472469012386824,0.31378611273691975,0.36533586583332056,3.0,7.0,0.0,45.09384271513851,1.3022001960965408,4.3023454915690404,0.9346117538639453,0.7448399371800813,-0.07871062261877732,0.7610754990301878,-1.3434092702640206,-0.3851577468291156,0.2001377243869869,1.101085044250214,5.32322286170052,4.506758941763831,0.9635599037340521,4.5766099380927265,-4.477610621155923,-0.35488149951659453,2.163261832305781,6.039448472060546
38,-40.69855740404326,0.9284609322745114,0.3470325062439781,4.0,15.0,0.0,46.126405768790576,10.75380332142152,3.313355549606438,1.290232432583836,0.38509884268847594,0.22660241635978434,0.7138517931342006,-0.9326164245868611,0.7028875174351932,0.26048230004642,2.4326145620822457,15.028802112205387,12.029772708990398,11.504617695221441,13.119048121799231,7.663713515362529,13.08271957806451,11.616873795854575,18.813920280750164
39,-43.15618691333082,0.9352564169643723,0.3037260837296746,4.0,15.0,0.0,45.312696114328205,17.896073829881807,9.871515840295036,-0.9772273028109555,0.2694126607263311,-2.345387680308149,-2.109446395757061,-1.1911859531496258,-0.5862206798494203,-0.5419452093417683,1.2030067976516774,8.249359030614666,20.555585177817818,-5.256457807912916,-2.9273596800872923,6.137262824628335,12.10918710283973,12.546253111292533,29.771574488882948
40,-44.19691230144806,0.8794340112121135,0.32450183095339463,3.0,7.0,0.0,47.23917820392873,5.993865545330939,14.308867727208677,-0.00469365524666962,-0.526896243049887,0.3992473832426275,0.03144027670737402,1.144616024974241,-1.8117461119631477,0.06778851616973555,-1.3556577981133038,5.9267046532492245,-1.5454231024330882,11.706643542583887,6.443740306043594,22.37202484513074,-19.930169926034345,6.9638424566274315,-13.404062571231288
41,-40.024718796157785,0.6627137959550736,0.36533586583332056,3.0,15.0,0.0,44.874147854600935,11.414930469292004,11.6694429824568,1.0451460691362207,0.6922528589042313,-1.1180191467915812,-1.3210883282954473,-1.3479619479258629,0.7553034653225006,-0.515801679872357,0.9354238649032816,23.611202931415985,19.493135735717644,-1.6317302174873518,-4.00143445254089,-4.315034624550256,20.22890119232496,5.395812175766099,22.33080592521022
42,-40.16134925609247,0.9935657043084637,0.3470325062439781,4.0,15.0,0.0,46.91307165584068,0.7207598076966977,5.795852014405611,0.028342524710953304,0.10669296928825206,-0.4811890656461986,0.02991502401199503,0.8896659033418574,-0.5617808450807172,1.6466938461722722,-1.8950414862094735,0.8850288866360172,1.3391364686689293,-2.0681408077387764,0.8941428598776113,5.877131725728589,-2.535238834918864,10.264753653143586,-10.262620207532683
43,-40.29801705290467,0.842774449108188,0.3037260837296746,4.0,15.0,0.0,49.74197932188582,6.435298062924604,4.4580291127553044,1.4980144870245031,-1.1436236414883105,0.49025884940606057,1.0401207895049078,-1.0429097729546122,-1.2259598861933678,0.6526415727284087,-1.6970037283233572,13.113490257409042,1.3369905751344806,8.62088628636274,11.072186823319516,1.7859759331159184,0.96993319920439,9.344793194342259,-1.1299939623952158
44,-41.00068110639563,0.95634937694655,0.32450183095339463,3.0,7.0,0.0,46.26090854769827,7.666953032656371,0.35103160296330677,-0.5312026684648748,-0.76717836287987,1.0157746622105719,-0.06115834296718909,-1.180024183878542,0.9428674477020423,1.211366817265386,-0.5146515676403365,7.480484108446761,7.397649182175885,8.02352204058166,7.645484521490019,7.252727251854019,7.997929304205141,8.092181068297599,7.486294067900006
45,-39.21339692435413,0.8918764143029542,0.36533586583332056,3.0,7.0,0.0,44.120264505368525,14.78238653927698,4.01737414038994,0.6877162705404136,-0.18801878126739174,-0.8897393963332054,-1.1258569260312055,-0.1227500949694843,0.4623839144273083,-1.0190581622610007,0.8608756689341419,17.545200100471448,14.027044749505727,11.207970496761805,10.259398038860304,14.289253482016164,16.639955720029523,10.688448630656339,18.24084618974389
46,-38.54660609461967,0.9942597433835217,0.3470325062439781,4.0,15.0,0.0,44.05305688361861,6.827966928287109,5.530654182722931,1.3340741191948622,0.6920760831531934,-0.8463234026985451,0.903170879081889,-0.44337253484999745,-0.2630881593228228,2.15498194795459,-0.6966240227269687,14.206269535674585,10.65560041234082,2.1472448612160973,11.823092728394904,4.375826763914502,5.372917299503462,18.746426852434574,2.975180363206926
47,-42.239591377503814,0.9667241692675655,0.3037260837296746,4.0,15.0,0.0,46.83298991653465,11.178798390029971,2.721704779774492,-0.44791671010425305,1.4866884185610099,-0.7320274042256465,-1.2362630024578978,0.7077281186239204,1.1737480649854495,0.13320816547211817,1.9489390290795852,9.95970133919836,15.225125364862851,9.186435905023115,7.814055467181946,13.105025393269504,14.373394108751931,11.541351690700427,16.483235060964937
48,-37.92083349750931,0.6996023079301856,0.32450183095339463,4.0,15.0,0.0,43.993489788402016,6.881932210668725,3.0218836881413216,0.9466058063710521,1.0084880028003396,-0.6163448246672303,-0.11691557838077232,-1.083345801706641,-0.9428177321873281,-0.18929786862624767,0.8998080047408321,9.74246485604127,9.92946565601729,5.0194098387364985,6.528626931470261,3.6081872038750435,4.032846684881445,6.309896069267149,9.601047342654034
49,-37.24269773952173,0.7084494130292629,0.36533586583332056,3.0,7.0,0.0,44.79657515260901,9.271227907995446,16.28688257399647,0.5177119091350102,-0.6099169467893897,-0.022950550401160508,-0.6596648067441178,-0.14290541776510285,-1.1738386913803098,-0.21093312434942296,1.2691499537030324,17.703140979236885,-0.6624177842537957,8.897434988603157,-1.472655337644074,6.943744149667307,-9.84694501932934,5.835784880750198,29.94172417274979
50,-35.49334134839434,0.9713335643918661,0.3470325062439781,3.0,7.0,0.0,40.06970254918348,3.5658177920385454,22.994332890077697,0.3306778932872987,-0.031012879416128847,0.28456791250293845,-0.24265823006792678,-0.14218376783932551,0.006549923736678953,-0.20778787254090142,0.8044293682671904,11.16953534967628,2.8526973188642404,10.109267101965616,-2.0139463286604236,0.2963969027755713,3.716428918844363,-1.2121257196879767,22.063134472529224
51,-43.223409100944465,0.9808004163271227,0.3037260837296746,3.0,15.0,0.0,46.01553472583816,5.173465472484739,4.726619373339119,-0.14248918545319683,1.2184224966387718,-1.0693220022030536,-0.9782757882586494,1.1139748237895688,1.1760168746713204,0.6687983338424278,2.6781714449890517,4.4999733280303476,10.932484850009775,0.1191873805340089,0.5495281792328086,10.438800456020546,10.732049615679925,8.334620634081283,17.832162509493614
52,-37.615481406687856,0.9425520806335906,0.32450183095339463,3.0,7.0,0.0,41.42785580997457,9.440932329356277,8.551427870434898,0.6705776751101232,-0.8629897507889599,-0.394526921737513,-0.22509796956084266,0.3354405341453379,1.054394235406583,-0.2639787630971864,0.4435139524833157,15.175328949584422,2.0611377225598986,6.06716381517322,7.516023278875381,12.30942786192029,18.457508580438024,7.183536977404067,13.233609903548842
53,-38.95693300433456,0.42605533507955623,0.36533586583332056,3.0,7.0,0.0,44.373333315859284,11.202840256622192,4.029290155475129,0.9599523811388879,0.35788190236698464,1.2937021523289765,0.5979639278702429,-0.6422803832337449,-0.07952238838196007,0.6922503702233093,-1.5255501003113194,15.070766935670022,12.644850282652195,16.41554160311832,13.612210424519002,8.61490623140367,10.88242147997489,13.992117858486985,5.055956255753697
54,-39.81865969314942,0.37150485981415143,0.3470325062439781,4.0,15.0,0.0,46.93259643897336,11.880070238556627,4.221557533476248,1.0740691421889423,0.7395114095312469,-0.9352346353102472,-0.36851116770568126,-0.2887123217204248,-0.7513861936121345,2.376355490316054,-0.4332682874335867,16.414314917238727,15.001960200554901,7.931923418294741,10.324379142358579,10.661254561790349,8.708050192363277,21.91199166091801,10.051003235725016
55,-43.49507974191839,0.9132712686233627,0.3037260837296746,4.0,15.0,0.0,51.807117551719,4.988304807690301,2.5906559578621544,0.28516415517710214,1.7809081856628186,-0.5614638602231621,-0.9157188457843728,0.6827156652843775,1.490394992663226,0.38055786707756334,2.656358777697363,5.727067025268588,9.602025209283163,3.533745113078882,2.61599232413236,6.7569862134850975,8.849405475001209,5.974199313346104,11.870016501351405
56,-39.27604740730365,0.9116848428820002,0.32450183095339463,3.0,15.0,0.0,43.38924132898086,13.755946086053687,5.019545976536789,0.1894088870170005,-1.34450547363189,-0.43190864557984193,0.5565773925504267,-1.3537068962071694,1.2872037855395921,0.5942539462924386,0.08230500378645414,14.706692702800183,7.007139045453044,11.587960781901938,16.549711897461517,6.960952081786885,20.21712466874187,16.738831091207004,14.169079836658828
57,-40.35118079357299,0.9581849428096678,0.36533586583332056,3.0,15.0,0.0,44.6570922461389,11.327953146297812,6.203668673129882,-0.32386737180308245,0.6140208349045143,-0.3095989659130198,-2.2793847311935864,-1.971345824045996,0.100064534979918,0.9349063879046556,0.09275068032746225,9.318787277594122,15.137134964444002,9.407303740229805,-2.812594504618417,-0.9016231862417463,11.94872036724404,17.127802617250936,11.903347636256774
58,-41.06657134928601,0.8306491194441282,0.3470325062439781,3.0,15.0,0.0,45.815307072204206,5.84781298543993,3.2210306928404946,1.1699537907224735,0.388316695132502,0.32871600038594395,0.5492010447074245,-0.6372478275611531,-1.9499305352466791,2.171481313656777,-1.223609227609207,9.6162700545621,7.0985929790041045,6.906617311910823,7.616806406982609,3.795218173919529,-0.4329731174965179,12.842220945658006,1.9065301072678236
59,-41.79806764927806,0.999782010399722,0.3037260837296746,4.0,15.0,0.0,45.810998178921466,4.604536784006046,3.4788837342914256,0.4573862552593025,1.574047355798199,0.1608259663937181,0.10137103014784787,1.3896409225500865,0.6093373553672619,0.24040358932256156,2.4522254476425456,6.195730387716099,10.08046452709683,5.164031622544852,4.95719481191576,9.438935985971273,6.724350598289368,5.440872920565582,13.135544006625206
60,-41.63834340168629,0.9259603641818416,0.32450183095339463,4.0,15.0,0.0,46.65126300287554,0.290327323827287,1.332511269687781,-0.14600289028932212,1.5837597878212406,0.2727047477403481,0.12923315531278068,0.383555156759139,-1.932034731189568,-0.17942030175444545,0.19732721749565166,0.09577682710977659,2.4007050895774187,0.6537094734886643,0.46253195969887856,0.8014188927557031,-2.2841307289110153,0.05124774972870608,0.5532680649563747
61,-38.79850728293001,0.9575656316202416,0.36533586583332056,3.0,15.0,0.0,46.69012519701234,8.118951054526962,2.7895129565166616,-0.4901356413798213,0.6908781011452219,-0.4025577104951735,-0.4070030921609332,0.5717444682472784,-0.3755766615888867,1.2828689693553454,-1.5429919129495813,6.751711332447346,10.046164469045186,6.996011105354992,6.9836106556016935,9.713839656519474,7.071275090859489,11.697530666056874,3.8147551215536755
62,-36.377981371493654,0.9987413052062638,0.3470325062439781,3.0,7.0,0.0,43.12896092924879,7.8499852466536355,13.062567888610502,0.6271980316223636,0.38655792546750645,-0.07246002574048402,0.36253365690894346,-1.4487179218124766,0.47381027925756136,0.7730196359703432,0.8064730631246261,16.04280211432364,12.899424390953378,6.9034712412080985,12.585605751932938,-11.073990958468563,14.039164185777032,17.94760672074522,18.384594384054726
63,-41.526078437625245,0.9776809634418855,0.3037260837296746,4.0,15.0,0.0,47.51647342474578,5.780272182764705,1.2655645786051881,-0.3575615581153673,1.3868762525907938,0.19707717302106903,-0.1201439165113373,-0.39661605268558797,-1.428403480959972,-2.0527820054474573,0.43277185969654497,5.3277549401430155,7.535453642952315,6.029686072191816,5.628222297693057,5.2783289551796155,3.972535333305414,3.1823439890722804,6.327972919013746
64,-42.569421279219945,0.982235511820814,0.32450183095339463,4.0,15.0,0.0,45.1151268966463,15.119503907520002,12.846491805966679,1.0883311764232746,-1.0572064139890986,-0.35869643505977444,0.036865801698832135,-1.050261494604,1.5069381670705257,-0.46414557377731347,1.3238181076257503,29.100741447619676,1.5381103729936303,10.51151309369515,15.593100126964442,1.6273282229673978,34.47837272288996,9.156861597214043,32.125922379724514
65,-40.00625151856347,0.9273962095042979,0.36533586583332056,3.0,15.0,0.0,45.03721905068197,13.747335556779847,1.2147588995060838,0.22703967599783426,0.5672583441279682,-1.3456332254920942,-0.3733152684776047,-0.20658903815652657,-0.6257888869190089,1.3517400757843014,-0.33856001816839076,14.023134023739194,14.43641767862838,12.112715620642248,13.293847512075173,13.496379684138804,12.987152937182975,15.389373843657856,13.336066761692853
66,-35.747606582924,0.665296698418058,0.3470325062439781,3.0,15.0,0.0,39.70808561612949,9.950034763610663,6.649085764518329,0.5636242223338435,0.14730091422362931,-0.5028164152082949,0.2552616853787026,-1.3566781997237563,0.19485839585066866,0.6473593299372198,0.6195114284444802,13.697620556868335,10.929451175475533,6.606765295083052,11.647291602089151,0.9293650587950815,11.245664949558222,14.254382468824355,14.069219383437272
67,-42.658328401180924,0.9831204770222522,0.3037260837296746,4.0,15.0,0.0,49.00130071866051,10.192930977726492,3.0868285518275016,0.9945327362443988,-1.626175004826866,-0.8130209567613039,0.019310588004718354,-0.8019847156536728,0.5288907600219231,3.079385898582573,-0.03071930676306256,13.262883023692833,5.173207542558697,7.683274675161586,10.252539452132034,7.717341659317475,11.825526076559912,19.698467291566168,10.098105744517923
68,-42.7741909434435,1.0,0.32450183095339463,4.0,15.0,0.0,48.393873880670725,7.208327932609167,1.0794299574603756,-0.6024371655922613,-1.3074645102624252,-0.6140821018389834,-0.5875179151211065,-2.306259536726935,1.1358988381501751,1.557841633270498,-0.5450096761074812,6.558039208581364,5.797011571915647,6.545469315543936,6.574143494482783,4.718882298987426,8.4344511671529,8.889908860540343,6.620028161112976
69,-39.318557192505565,0.40034209407081783,0.36533586583332056,3.0,7.0,0.0,45.266359631939956,16.483480286133315,9.240091166377711,0.27557728878916626,0.41842602373957616,0.009794074725614943,-1.6225515427409833,-1.6213832522696467,-1.6101261089355692,1.073242445737163,0.016316314201443846,19.02983955792841,20.349774891871924,16.573978429488314,1.4909561090598267,1.501751219523788,1.6057682502036457,26.400338328370886,16.63424451685392
70,-45.20988774273944,0.8565658940608792,0.3470325062439781,3.0,7.0,0.0,45.87692213977806,-1.1124487488899093,2.4524042744621437,1.321284580289771,1.1130921251211743,-0.7581848179806516,-0.8931995992011337,-2.067496207641512,0.6240492378185637,-0.5180869122728781,2.1544816502180315,2.1278752035936446,1.61730313662741,-2.9718244373379616,-3.302935263918643,-6.182785285944226,0.41797226941117915,-2.383007307090809,4.171211259355044
71,-45.04121920679648,0.5072839234993273,0.3037260837296746,3.0,7.0,0.0,47.73022499771705,8.926325552465256,10.095646511110086,0.5162612357877998,-1.9234731826879035,-1.3078046992837176,0.2779922878634446,-0.7921129517625173,0.48867087810041937,2.9215166913639066,-0.24955714133322976,14.13831649636774,-10.492379773551688,-4.2768083970717825,11.732837423549352,0.9294331945988867,13.859773998040858,38.420925344783164,6.4068848692418285
72,-39.459227860360066,1.0,0.32450183095339463,3.0,7.0,0.0,44.88190101835239,6.7641058257467375,0.8813645196628496,0.38477258552359445,-0.5838699728723107,-0.7771359173740681,-0.5429334209451666,-1.6572182995692608,-0.45355882420055305,0.6943808485716868,-0.49553148063795766,7.103230730766173,6.249503547560573,6.079165801217594,6.285583571986493,5.303492415170392,6.364355170516371,7.376108468811204,6.327361960336443
73,-38.60940156825623,0.9587088322387355,0.36533586583332056,4.0,15.0,0.0,44.51749323137314,7.303976650373537,4.376036126708599,-0.2030443366854126,-0.1810846895091774,1.4645977749036514,1.5878551692711258,-0.501271338504881,-0.7095315127154641,0.12243747529585286,-0.16986690044933045,6.4154472977145875,6.511543507087567,13.713109424448945,14.252488235084982,5.110395163792602,4.199041117692464,7.839767465531181,6.560632957275254
74,-46.497388665254135,1.0,0.3470325062439781,4.0,15.0,0.0,50.34891945755676,6.386204782202713,0.6470320617259846,0.12044383189693475,-1.3229465849655064,-0.006427023207297933,0.8512492796274581,1.6075919704271742,-1.9201201179375442,1.1580101721457132,-2.8005043283258466,6.4641358030771645,5.530215925779131,6.382046292126134,6.936990358642826,7.4263683292423455,5.143825503532042,7.135474491385816,4.574188692773497
75,-42.34596656397657,0.8437406041546804,0.3037260837296746,4.0,15.0,0.0,50.19584221028772,2.791110492333314,0.4636581903199569,0.8436469141971036,0.566683465928869,0.4534502652921776,-0.34394035861257355,2.104760314867054,0.6438479827764537,0.23970567674255938,-1.1753079682263743,3.182274293838959,3.0538579226301343,3.001356421738789,2.631639728081011,3.766999850981835,3.089635882868599,2.9022519926211894,2.246169326716848
76,-39.69207786832239,0.8759332705153209,0.32450183095339463,3.0,7.0,0.0,45.03515087245116,6.985809805683003,3.738363992152721,-0.5504540952305869,1.246446181406546,0.8845817219778936,0.5469379095669372,1.2376794404862952,0.660269367234284,1.204451023087347,0.2613137265378504,4.928012036739972,11.645479328409493,10.29269826324161,9.030462792751322,11.612706059824696,9.454137033273112,11.488486140704246,7.962695631627345
77,-37.28551604004002,0.9980382904510054,0.36533586583332056,3.0,15.0,0.0,41.31978841952838,2.8040703562289955,15.720130583867775,0.8451247748007633,0.18089063875419542,0.21399480928560932,-0.8716909891224675,0.6588895993974746,0.5494575784892175,0.48834117135689037,-0.2560329144842912,16.08954217575884,5.647694818844201,6.168096702468654,-10.899025821557057,13.161900899109623,11.441615240375272,10.480857339438261,-1.2208004932323138
78,-43.503070444730376,0.8080761550136478,0.3470325062439781,4.0,15.0,0.0,53.40457381244114,5.9990972622110545,0.3563412116352691,0.08503465512310937,1.179451474300259,0.33918871508908205,-0.116205970789316,-0.14187214057516773,1.0899109994213099,-0.5802393465140316,2.760115176813487,6.029398614248611,6.419384429628213,6.119964179918908,5.957688285780737,5.94854237174121,6.387477468319451,5.792334070435788,6.982640048569667
79,-43.99239506394864,0.9905884266526945,0.3037260837296746,4.0,15.0,0.0,47.32794529723219,10.00378211523812,2.4234730982797754,0.5195681690456052,-0.13688660782944617,1.1611588612700046,-0.21125060893812647,2.5135121786413714,-0.706197247327691,-1.3940674616457436,-1.492995832951845,11.262941595642623,9.672041103648684,12.817819378355154,9.49182194748135,16.09521126237407,8.292332084260233,6.625297124752489,6.38554687823552
80,-41.279438048814306,0.9365710967839367,0.32450183095339463,4.0,15.0,0.0,47.08715648277775,13.831879139934387,1.172495772048611,0.9393920003501641,-1.380111223823942,-1.029837522284202,-0.5576269147315757,-1.3376006921573105,-0.5865896585727518,-1.1379202779729378,-0.19778051275754827,14.933312288641241,12.21370456504398,12.624398999159142,13.178063940031103,12.263547983690644,13.144105245330397,12.497672425082737,13.599982324932554
81,-40.24173200720204,0.5674118908504593,0.36533586583332056,3.0,15.0,0.0,42.7464268753081,2.5774271442059584,1.0758126617086123,1.0586642696007846,0.7457203410995047,0.4459847168070231,1.7812990740203793,0.3610867294372274,-0.48799928823296357,0.20670804538047133,-0.062063829680324575,3.716351569940983,3.3796825292544708,3.0572231494754836,4.493771242326909,2.9658888197094795,2.052431331020146,2.799806276703308,2.5106580904017384
82,-39.71901271009462,0.9909055548824609,0.3470325062439781,3.0,7.0,0.0,46.37914150805784,6.786340977948031,0.5643488770032433,1.0206319775422164,0.46929323515589866,-0.14814313029365073,0.19029819015617583,0.1579330123937412,0.3725707656905288,-0.1949827737732505,1.6601733977922826,7.362333488307581,7.051186088193481,6.702736568731064,6.893735547858419,6.8754702961341785,6.996600871169719,6.676302668534119,7.723257970622765
83,-45.62334906703352,0.965592676506889,0.3037260837296746,4.0,15.0,0.0,50.530042981831926,4.595779547759584,4.0094746787969076,0.6693488512892797,0.10179903649234845,-0.2255896218283227,-0.6506735076855081,-2.738529087353455,1.6063155792611732,2.816191496958356,1.4536245186479109,7.279516818285748,5.003940206901577,3.6912836712395536,1.9869205945305737,-6.384283485132899,11.036261188964245,15.88722804545727,10.424050247756725
84,-38.86408292314887,0.7837085916320301,0.32450183095339463,4.0,15.0,0.0,46.53610785097321,6.976842374023846,2.3457943182755776,-0.831333093339007,0.3606552014432797,0.9211574167313774,1.14471511641288,-0.8488010538162111,-0.5608305130523152,1.0311992430703871,0.798544953545714,5.026705927074743,7.822865296426025,9.137688208429719,9.662108590149346,4.985729684635455,5.661249342990148,9.395823699428437,8.850064588939016
85,-37.9929103259836,0.8801982740779393,0.36533586583332056,3.0,7.0,0.0,42.95973288510958,10.40320514933355,13.176904126510191,1.530091219759166,-0.34443494503804717,-1.4215592206760963,-0.8448438982059803,-1.2306489136528367,0.5008782035641968,-0.3416839807312303,-0.29116104842752843,30.565070456915116,5.864618900747395,-8.328544411671915,-0.7292218991937869,-5.812937599263799,17.003229216757624,5.900868093673773,6.566603928829817
86,-40.97967018042418,0.9786718231411624,0.3470325062439781,4.0,15.0,0.0,44.82555294500747,10.93123956770448,4.332668038795375,0.8561447211233602,-0.5233800851131762,0.25447328844620687,-0.17644395888831854,0.2234978716132323,-0.7438733470928536,-2.4858453990449103,-0.5068860823508453,14.640630437499043,8.66360740079262,12.033787851282517,10.166766466390538,11.899581652781924,7.708283291843536,0.16089665787606222,8.735070439392773
87,-40.849028895392706,0.978197504437235,0.3037260837296746,4.0,15.0,0.0,52.519467469440826,7.133289809546435,2.762515460189926,0.9731200303546159,2.57168109801501,-0.3768581772351209,-0.265205825637826,0.6633836477574481,-0.2193209739566907,1.1756135792555764,0.6876124220990292,9.821548938021552,14.237598601491104,6.092213268635418,6.400654616089507,8.965897392513574,6.527412228247164,10.38094049744918,9.032829756213644
88,-42.35049067338401,0.9736386147260235,0.32450183095339463,3.0,7.0,0.0,45.22465652219998,6.654931803862597,6.768629484652084,-0.17982532520926964,1.6617048245234556,2.4030518373246617,-0.1766592718902783,0.32019164716638604,-1.2363591751545178,1.2908222484403244,0.1050926914753017,5.437760805563985,17.902396073920677,22.92029932312566,5.4591906474088905,8.822190427612314,-1.7135253627084008,15.392029334100675,7.366265294003769
89,-42.46386441199373,0.7241423905972468,0.36533586583332056,3.0,7.0,0.0,45.73245160850679,17.50981844995676,2.6494860812366055,1.8417505413667041,0.6996563566023581,-0.39614203758027755,0.4368435830271441,-0.9589988698542566,-0.4842574724280921,-1.410748998126476,-0.92230258272918,22.389510874417827,19.363548228423422,16.460245635195108,18.667229442864706,14.968964292356272,16.226785017023712,13.772058615302177,15.066190594327226
90,-41.57561297020622,0.9688677499921085,0.3470325062439781,4.0,15.0,0.0,47.3757588497196,9.62524770627915,4.289156870215063,0.45940373230398834,-0.613201534075051,-1.522122487800373,-0.2157187672830094,-0.17459206944715702,2.0790086069182436,1.4309888747309805,-1.4061335235401906,11.595702380893243,6.99513013357473,3.096625580421338,8.699996073552906,8.876394932124812,18.542441755878784,15.762983469532857,3.5941204433470286
91,-40.62751818138181,0.9936145332353026,0.3037260837296746,4.0,15.0,0.0,44.74660608243846,8.88984493894478,0.8037839673706697,-0.17386933573250954,-2.021318785905735,0.14424271205523145,-0.1873995597406235,-1.4230473179280831,-0.6872154599286237,0.2311807188729923,-0.5350790127278087,8.7500915544656,7.265141305888603,9.005784918304839,8.739216177332944,7.7460223199843545,8.337472170124892,9.075664294340116,8.459757007237641
92,-41.412624187071934,0.9989235600688442,0.32450183095339463,3.0,7.0,0.0,47.813490049852476,9.95549268787156,0.9830330091990148,1.6476914809855274,0.7771080503240464,2.1406948686227016,-0.33956211066090153,-0.5449909939629206,-0.21681575559405963,-0.41242779208802227,-0.02880076152305712,11.575227802656345,10.719415553054388,12.059866406350624,9.621691924418606,9.419748551089828,9.742355643208173,9.550062554337966,9.927180588604326
93,-41.130518865460836,0.9824199719828931,0.36533586583332056,3.0,7.0,0.0,49.035400507771406,1.4399372299557998,6.52696677984632,-1.658714950582339,0.08474973001708991,0.4626349732386622,-0.010195346441443376,-0.49145765592398416,-1.2159080730005138,0.06566699208813587,1.3551853591906362,-9.386440149729559,1.9930959023782902,4.459540331479639,1.3733925424234745,-1.7677905639611877,-6.496254369865508,1.8685435058474937,10.285187049927185
94,-37.991741456025274,0.9338006417507665,0.3470325062439781,4.0,15.0,0.0,45.87361798878188,5.554590668435422,2.745998148422992,0.020170722316359156,-0.04633255765739161,-0.07280090119191035,0.41152353764739547,0.6941173835569815,0.5586142455529137,-0.20411186460293906,-1.3695863977974814,5.609979434568499,5.4273615508965225,5.354679528558911,6.684633540847649,7.460635718471105,7.088544352406429,4.994099866164587,1.7937089559782229
95,-39.295854887950014,0.9970886270685393,0.3037260837296746,4.0,15.0,0.0,43.6438986363244,7.9360703933852985,4.509456403925491,-0.011667022083679479,1.8496959479680748,-0.26312888827990627,0.5477096988147345,1.0406535527171175,0.5821349005937726,0.14020793250772917,0.3448240322551355,7.88345846593531,16.277193631264964,6.74950214307368,10.405943402197504,12.628852220953318,10.561182348816416,8.56833195251343,9.49103933386563
96,-40.23502252796865,0.9490363957479506,0.32450183095339463,3.0,15.0,0.0,45.18877354676042,10.349982900835963,3.245210363079509,1.270176653136703,0.6426136326028631,1.795798835607417,0.5161293547962594,-0.7307186230345757,0.4810679197956797,-1.0195770643931266,0.5672940645969297,14.471973338536838,12.435399320814943,16.177727892155268,12.024931231710324,7.978647252868969,11.911149499502004,7.041240845509205,12.190971478179415
97,-43.49409129815306,0.7621730555364802,0.36533586583332056,3.0,15.0,0.0,49.73132809098901,-3.27170814487246,7.440382170981023,2.724419723619767,1.2677338712624824,-1.5407145183115927,1.3613533423791364,0.7158937040979501,1.6200585086791341,1.0483751787430506,0.2089347402419744,16.9990157930171,6.160716348417664,-14.735212977489649,6.857280992170691,2.0548146074154916,8.782146299049874,4.528603843546377,-1.7171538286775225
98,-40.65607705295586,0.9525134249293276,0.3470325062439781,4.0,15.0,0.0,45.490528487445566,9.261532472444289,1.0524920042227972,-0.5706423382170397,-1.7601011628204775,0.8424010126763766,-0.47851779026220514,1.3792774585107592,0.34149206433889,0.49346078829846973,0.27698377005634545,8.660935974199854,7.4090400719524885,10.148152802635362,8.757896324314956,10.713210969131604,9.620950139666508,9.780896006525907,9.553055675728078
99,-39.21656608426295,0.9840686983352848,0.3037260837296746,3.0,15.0,0.0,42.613495571412386,12.572207301541377,2.1250987853942997,0.11542061209677767,0.6053704777595872,0.26231959520637627,0.38951631357922367,0.6359944335272614,0.6177029908495432,0.843794244945637,1.2209552043914107,12.817487504117706,13.858679368541843,13.129662354699573,13.399967946419851,13.923758299747696,13.884887177130167,14.365353426598052,15.166857723414413
100,-40.86159603610759,0.9084178317148571,0.32450183095339463,4.0,15.0,0.0,49.826878382652914,12.178451620233835,4.995896913235278,-1.2505191783513208,-0.11370482550346947,-0.745726851244648,2.0135466945730767,-0.8707068229754459,0.5219437619171564,0.6651209033103902,0.7525239434321052,5.930986717166956,11.610394033481096,8.452877145984035,22.237923336306565,7.828490090997909,14.786028849278166,15.501327088010473,15.937983666361928
101,-43.25091072383919,0.7702030797026118,0.36533586583332056,3.0,15.0,0.0,55.86987174744978,16.793716010661477,1.5064605263171134,-0.9756333753088758,-1.1968570378516996,-0.12066854307799224,-1.0864715552291593,-0.9445595274936541,-1.896520902646279,-0.42828208905413556,1.2670051049440834,15.323962842601127,14.990698127493065,16.611933613746285,15.156989499742386,15.370774367735542,13.936682133489557,16.14852594937279,18.70240918790201
102,-37.23690807732953,0.6458277181253346,0.3470325062439781,4.0,15.0,0.0,44.28373244216277,4.45595318507692,10.880376025917947,0.7276576849130967,1.3329098474590777,-0.7091656302120628,0.6132399147473335,-0.16075099869678444,-1.2518453779923209,0.2153416186328206,0.608917335367936,12.373142415080332,18.958513534080616,-3.2600355362874005,11.128234051629773,2.7069218727140596,-9.164595253786919,6.798950969831827,11.081202762580048
103,-35.83779375870992,0.9444738768676668,0.3037260837296746,4.0,15.0,0.0,42.53170380616466,4.10787269606891,10.709038763107856,1.1438583100175304,-0.5139356686674564,-0.3757179719896203,0.3980649304689154,-0.77078770452897,0.542021408547528,0.7707051049349032,-0.6417719564245046,16.357495677549686,-1.395884301434637,0.08429437003579388,8.370765466694358,-4.146522709858756,9.912400970638707,12.361383539741896,-2.7648880623566754
104,-41.32207446665532,0.9117173901479866,0.32450183095339463,4.0,15.0,0.0,48.35470552536962,9.63285454014081,0.8836485567565131,0.7486636597486874,0.49503151809942736,1.7393682532823496,1.6948957915614562,-0.45004915040668975,-0.06797716798973402,0.34563906939617334,1.050531832381155,10.294410102573787,10.070288426658355,11.169844786821855,11.130546760206778,9.235169257914444,9.572786613754287,9.938278004971403,10.561155477651193
105,-38.307187268355605,0.5505131573946412,0.36533586583332056,4.0,15.0,0.0,49.05445605212266,9.786842154628859,6.225154308976286,0.8530650941910458,-0.09288703282319644,-0.17110360900370072,1.4029692795184525,-0.2110690289168331,0.027265468976414575,-0.8955998601946064,-1.027974691381504,15.097304001569508,9.208606042001517,8.721695785758078,18.520542410384508,8.472904879775795,9.956573906313645,4.211594825819846,3.3875410750567214
106,-37.46637964954013,0.9953048471698372,0.3470325062439781,3.0,7.0,0.0,39.95257463540577,6.28939260909062,5.177006631211822,1.7803854767551053,0.9991970677831282,0.1515854519339448,0.5066457629529797,-0.9152654376737278,-0.526728579778429,-0.1047795414719559,-0.47081501767225453,15.50646002836502,11.462242454891284,7.074151498947893,8.912301083573569,1.5510573689347407,3.562515258728908,5.74694822807497,3.8519801405272474
107,-45.10025002504468,0.5794603914621154,0.3037260837296746,4.0,15.0,0.0,47.31140939459245,8.310224501023114,3.0194754986433265,2.4260798496355,-2.305506232294425,-1.9598293902330133,-0.6286859130057029,0.34137523151443,-0.14952551608425232,-0.15627153829473353,-1.7969984154107481,15.635713164749792,1.3488049206406085,2.3925676756934404,6.411922790360185,9.340998648424629,7.8587358687847155,7.838366420006865,2.8842318145894783
108,-35.638784724457366,0.987757579905022,0.32450183095339463,3.0,7.0,0.0,44.10289261706272,7.222797073005889,15.237265023955567,0.6430492041989211,-0.3870294468577256,0.3901422622180085,-0.6449193415261981,-0.8520664983787022,-0.24680194409440576,-0.12727044097674464,0.7665097862910497,17.021108220828573,1.3255268191597969,13.167498119467252,-2.6040098529037046,-5.7603659808242025,3.4622104424119633,5.283543634127537,18.902309830178158
109,-41.4246423733014,0.8352623777503421,0.36533586583332056,4.0,15.0,0.0,44.850511470947765,7.223094091996007,1.7511987296247031,-0.13502628120637072,-0.3213432661323944,-0.6782928743836075,-1.9342136663507754,-1.3724917769223302,-1.181012400341022,1.6307256789005913,0.8729463135093753,6.986636239881463,6.660358172571505,6.035268472061945,3.8359015766597895,4.81958823582927,5.154906676847787,10.078818829253104,8.751796567244194
110,-38.86366426077983,0.9736788401025525,0.3470325062439781,3.0,7.0,0.0,40.570014110672126,2.5728023066842924,13.455409822411195,1.7271036206733867,1.0996463299685157,0.34907706746007017,0.5702056456614665,-0.35944708322307517,-0.19786467473556038,-0.5261916325302418,-0.8317466580434418,25.811689328614918,17.36899433612108,7.269777308965016,10.245152952111905,-2.263705507552527,-0.08954798126076291,-4.507321754133705,-8.61868984571112
111,-45.56649537746496,0.9976809332092306,0.3037260837296746,4.0,15.0,0.0,49.58717291593747,3.0337847697122053,3.9137771067999907,-1.2980618655124636,2.5899062409933875,1.6824340724520148,0.8478739970469615,-1.2865120759864894,-0.49040384195381487,0.6130806792104863,1.9497835308315785,-2.046540042740563,13.170100524470545,9.618456726175177,6.352174608805607,-2.001336740905447,1.114453439986604,5.433245896627596,10.664802915896491
112,-36.478537480194646,0.7151422930220487,0.32450183095339463,3.0,15.0,0.0,39.1797277077565,15.573827834584943,6.609125779298627,-0.0017380396321188124,-0.2587863284192003,-0.8192723793900132,-0.8211754466392636,-0.6683936592296781,-0.44860436871581255,-0.14328392236805654,0.5529172011251984,15.562340912046864,13.863476440099566,10.159153631691082,10.146576020874322,11.156330070650336,12.60894513659928,14.626846369503198,19.228127162359137
113,-42.46153724773401,0.6341635122020767,0.36533586583332056,3.0,15.0,0.0,50.51766813871127,-2.079914579338765,1.0212056997299728,-0.10432218715238523,0.2808027151912424,-0.0009412443086800337,-0.7831612745428014,-1.1015957663672005,-0.7675832009861052,1.6432778112629551,-0.599720477285327,-2.1864489914670777,-1.793157246085816,-2.0808757833916274,-2.8796833367096637,-3.2048704547513576,-2.863774919202753,-0.4017899122372408,-2.6923525489873206
114,-39.511664251283094,0.8159167297431852,0.3470325062439781,4.0,15.0,0.0,46.318509871737675,4.820995496611799,5.76773018733702,2.345684710968616,-0.23065304136894127,0.595471982419106,0.17207776840908717,-0.5814042214090197,-1.6588824006529936,0.21657918754046568,-0.8681138516677529,18.3502720140404,3.4906509871070615,8.255517225323896,5.8134936360344796,1.4676128177458194,-4.746990602876577,6.0701658145378685,-0.18605097169771145
115,-44.32366088504035,1.0,0.3037260837296746,4.0,15.0,0.0,53.2759189614867,1.5758832503813487,4.572748018789686,0.22515843801757796,1.8372934107038519,2.422982978682947,1.1309219393149461,-0.6099879715308418,-0.9568713025525698,1.1873257634846153,1.9675688790009331,2.6054760517400086,9.977363054112732,12.655573865714926,6.747304307789558,-1.213438037921848,-2.799648102602621,7.005224783013575,10.573079943665109
116,-34.056218453250516,0.693558200592161,0.32450183095339463,2.0,7.0,0.0,39.048431120300776,10.301935783530526,35.386433106468914,-0.1982098917941804,-0.06633981344088805,-0.600942967394013,-0.5031983658623225,-0.2660017891874301,-0.39113975507961185,0.14795864471174555,-0.025440324193664765,3.2879947065153203,7.954406412908914,-10.963292332960643,-7.504459529341018,0.8890812642484835,-3.539104994874794,15.53766446714651,9.401693453244524
117,-38.5312435181069,0.5228203880757981,0.36533586583332056,3.0,7.0,0.0,45.020171129562954,1.4796768240977636,17.990449615874976,0.9156214802476172,0.636480420734017,-1.0257125844704706,0.009812414654997992,0.25046061906557204,0.49913561493387515,1.9710612271375516,0.6198772048074132,17.952118931705385,12.930245764804003,-16.973353747187144,1.6562065755585782,5.985575972157793,10.459350956054418,36.93995452072059,12.631546445214944
118,-39.954161297580825,0.9708910311790624,0.3470325062439781,4.0,15.0,0.0,42.265903970313246,6.780674974722263,1.3538191700033553,-0.6063381147538613,0.02330444418040732,0.8070150661598098,-1.3035867369896257,-0.278552593933991,-0.7804169480453876,1.6261456289430942,-0.8093685630220604,5.959802811464791,6.812224977999972,7.87322744177094,5.015854260423586,6.403565133200265,5.724131549862905,8.982182100402587,5.684936298504929
119,-37.57570976066417,0.9804225954791066,0.3037260837296746,3.0,7.0,0.0,45.76642395721959,6.47346291362447,26.855880737884988,0.5691179989498579,-0.7278436934267831,-0.9711404304185947,-0.1749262794380101,0.01790503624540425,0.5146336164946194,0.2577806402683421,-0.11498701588794702,21.757628019205608,-13.073420512866942,-19.6073686654356,1.7756636151153282,6.954318431638555,20.294401941910408,13.396389045206696,3.3853853285324784
120,-37.02833859823705,0.18378446957928404,0.32450183095339463,3.0,7.0,0.0,40.287038436365656,10.940939806652475,6.970054693702036,1.445252586487265,0.5909595935315378,0.031436918240758005,0.9045618117672461,-0.0486571565554753,-0.7758780162020901,-0.02736758656591856,-0.05761621238993643,21.01442938068304,15.059960495335217,11.160056846191997,17.245785108504386,10.60179676422079,5.533027598082873,10.750186231453398,10.539351655050664
121,-38.50224764150169,0.8373933604005114,0.36533586583332056,3.0,7.0,0.0,43.68405893810114,-3.1600347461911733,12.599849471945873,1.4623982501706705,0.4423045414600999,0.4575202660383054,1.0101567573337162,0.1382048919158847,-0.0828950747813213,-0.39119216876841145,-0.02681683160212927,15.265963073996318,2.412935896964128,2.6046517362561046,9.567788339282608,-1.418673911764477,-4.204500210401518,-8.088997187277204,-3.497922787692523
122,-40.08626868011472,0.9975569550097588,0.3470325062439781,3.0,7.0,0.0,43.98465386677113,4.559372332300453,4.674004839849541,-0.5618825091267348,-0.6956612520458265,0.287161714744636,-1.8563035515048127,-0.4859268492295724,0.11217479338533565,1.5412627208204608,-1.0202595103651533,1.9331307652152905,1.3078482733424681,5.901567576836374,-4.116999451662934,2.288147887188593,5.083677859492634,11.76324174889496,-0.20932555704879707
123,-36.990325394225096,1.0,0.3037260837296746,3.0,7.0,0.0,38.30065369657085,11.315541772053056,9.414814481630534,0.18223247765205455,1.2532845308297942,-0.7863625302550912,-0.08527730472695456,-1.1522875905955243,-1.257264169886592,0.5405576908660176,0.21215322380762144,13.031226741675031,23.114983122512932,3.912084434395794,10.512671768555304,0.4669678771111574,-0.5213671418304244,16.4047921481752,13.312925015881653
124,-36.862635812444495,0.9948570736438843,0.32450183095339463,3.0,15.0,0.0,40.139725943921846,11.68291446004092,8.493467176450917,1.0950291637545932,0.10288562130500567,-0.658663705887492,1.3258694029653153,-0.8807192859935645,-0.7300801984538843,0.3841294832917961,-0.5342908111898952,20.983508719647055,12.556770107523745,6.088575893765985,22.944142714387397,4.202554112787292,5.482002258296082,14.945505617886841,7.144932992520211
125,-35.76908219258898,0.948828281095169,0.36533586583332056,3.0,7.0,0.0,41.22475384938423,-0.5970469176302768,24.911889115680328,0.7484622473258835,0.6767289114373753,0.20857104196205786,-0.10797850223523031,0.07603528753699162,0.011143421773899154,0.17557090003388298,-0.6857317593721038,18.04856159502504,16.261548685472672,4.598851752470418,-3.286995392191575,1.2971357343701289,-0.31944323002964337,3.7767558759540116,-17.67992047020851
126,-41.42500617650386,0.9705504935464097,0.3470325062439781,3.0,7.0,0.0,46.02204400187372,10.628156277460619,0.5254707407263273,1.1415575320621332,1.4705141447660748,0.006576196457532907,0.9096158484141152,1.1766003112289436,-0.7994309310177008,-0.48327676915662565,0.547821798836583,11.228011359415026,11.40086843435939,10.631611876284321,11.10613279110319,11.246425314540918,10.20807871397921,10.37420847559606,10.916020603881307
127,-42.45591278259538,0.9519762756994345,0.3037260837296746,4.0,15.0,0.0,46.965712710600066,3.1014156066603147,2.0373750199931253,1.7543548921678673,-2.364009791680376,0.26511187288551585,-0.14145550246865146,0.5654350911023117,1.0892886958879422,-0.37782451872879713,0.38755257956765454,6.675694440165861,-1.7149588899284356,3.6415479139808573,2.8132176994901084,4.253418936699702,5.3207051852232965,2.331645370261339,3.8910055512053523
128,-39.538969492546556,0.9684781532392343,0.32450183095339463,4.0,15.0,0.0,42.37770441915359,11.653872370953223,5.397533692649617,1.589782768207319,-0.29171469391359217,-1.292855749194819,-0.7177852844986966,-2.18814548983502,-0.11121133865474064,-0.8127224154531185,-0.5215839016400361,20.234778426346004,10.079332481913639,4.675639904938426,7.779602113783418,-0.15671663485059817,11.053605423559594,7.267175750773436,8.838605688307485
129,-36.656101355375874,0.5433768057006502,0.36533586583332056,3.0,15.0,0.0,43.803907118856856,3.8316812445174593,6.926970820512349,-0.5882287241353552,-0.213096547816725,0.8226069760747688,0.2952484583907062,-0.22175968381102884,0.02707698140641441,0.9397123952447517,0.6525429466094794,-0.24296196335535392,2.355567675839091,9.529855764537283,5.876858700591136,2.2955583855924178,4.019242704627247,10.34104158605162,8.35182719481247
130,-37.48696664022394,0.986958022405938,0.3470325062439781,4.0,15.0,0.0,44.987351969273334,8.903186653033828,5.212348426896257,0.16965372435463982,-1.0175294170193496,-0.8937944792889222,-1.066578186646284,-1.0488117841366238,0.47794118331283303,1.0506292459935753,-0.40566634713074656,9.787480976290826,3.5994687969123547,4.244418404943654,3.3438095197062063,3.4364141998790396,11.394382628023408,14.379432350639641,6.78871230672213
131,-40.915506387559006,0.9942892520945291,0.3037260837296746,4.0,15.0,0.0,46.420341331252196,9.544046788639056,3.8051229078469433,0.33236800444988457,-2.4669631537327854,0.458268257229816,0.02873976310898553,0.06722245814904076,0.10098277839387526,-1.1242245282977261,0.9817949086010813,10.808747896206686,0.1569487795560942,11.287813832163325,9.65340511961115,9.799836504063753,9.928298672003622,5.266234282449954,13.279897086164526
132,-41.549678429855426,0.9769277139004591,0.32450183095339463,4.0,15.0,0.0,45.5827376642867,14.188126424371733,6.277945600936756,-0.7324926689748987,-1.1668563191654902,-0.2553295339473821,-0.30869650863646025,0.48654409003398696,-0.7175898117462586,2.3777726496984712,-0.5450206032344348,9.589577295462345,6.862665928541488,12.585181499937534,12.250146535952933,17.24262375406238,9.683136622442273,29.115653770573985,10.766516725876215
133,-35.929223322320865,0.9651951896014971,0.36533586583332056,3.0,7.0,0.0,39.588290154513984,5.737713735536435,6.491896081517269,1.3129265751662085,0.27086845342269905,0.5363180774665184,-0.05299643395799408,-0.22156884329689103,0.5196237477564589,0.4997906079987633,-0.43900411492010805,14.261096624177831,7.4961635869178975,9.2194349610882,5.393666393590144,4.299311829951034,9.111057107459908,8.98230242518274,2.8877446421166284
134,-40.80961504095369,0.9580764997077693,0.3470325062439781,3.0,15.0,0.0,44.164215706355265,10.306124425834849,4.645493324619014,1.9933951503577458,0.4789042624017993,-0.43671025998795215,1.7788649711526066,-1.5695939551712277,-0.45462228060332477,-0.6857785796626042,0.8356493595438261,19.566428290149673,12.530870979954,8.277389828268182,18.569829774722876,3.0145861847245543,8.194179656069032,7.120344611845512,14.188127947317849
135,-39.82536907843509,0.9879214256444624,0.3037260837296746,4.0,15.0,0.0,46.62877511407635,5.829940097184425,12.330858038920868,0.9610465416150367,1.5911084204962536,-1.4907468222759976,-0.3110997358499468,-1.1810666148232867,-0.054375709004047645,0.9347075136543458,-1.0741817385676622,17.6804685706353,25.449672154855335,-12.552247340273299,1.9938134184729495,-8.733624664710355,5.159440948689842,17.35568575596885,-7.415642429094627
136,-38.44594795991984,1.0,0.32450183095339463,4.0,15.0,0.0,45.25956113544671,1.5979961194410426,2.698708199282656,0.11978065799016485,0.6579801412790913,0.3994746003084305,0.7528081140019057,-0.335632098440217,-0.07858709191427132,-0.8672286952833822,-0.30601209210608044,1.921249163274572,3.3736925216760865,2.676061498698566,3.629605549184498,0.6922230234379854,1.3859124901342188,-0.742401071173421,0.7721587773947239
137,-36.56410047649731,0.9364614442327968,0.36533586583332056,3.0,7.0,0.0,40.545164327882915,6.468313679403687,5.937680859920415,1.772165021008623,0.44416694399043477,0.44529071148304633,0.4225753596217905,-0.654350435112148,0.3190493642632523,0.9028920247630976,-0.1368718949764835,16.99086400526705,9.105635241345034,9.112307814076916,8.977431304103979,2.582989625157691,8.362726982959376,11.829398373414321,5.655612048340784
138,-38.00273732319483,0.7590949950325275,0.3470325062439781,3.0,15.0,0.0,45.484229591179364,14.41520729734826,6.413052654093628,0.6320553798399704,0.0003359128588629745,-0.33317121819467677,0.5839351857538171,-1.5675922727608136,-0.7091258025131615,-0.9905633686372046,-0.8953103952569406,18.468611728565136,14.417361524199336,12.278562732237281,18.160014390165433,4.362155511982863,9.867546187454955,8.06267225706151,8.673534590808123
139,-37.6890828869649,1.0,0.3037260837296746,4.0,15.0,0.0,42.09679483994337,5.929579648545075,1.9334976491770273,0.08310057810366796,-0.4214496307450878,0.8334838258811375,0.3413585404086177,-0.8798712282863551,0.012492339915742376,-0.4233386005551163,0.6930605737603841,6.090254420953769,5.114707778252922,7.541118666513329,6.589595583951638,4.228350697074903,5.953733558404883,5.111055459565865,7.269610638648059
140,-41.25563421190125,0.9659645764657586,0.32450183095339463,3.0,7.0,0.0,44.05165449678759,13.265541915747578,6.012703005090854,1.4721374360628554,-1.8097400497255438,0.4627935270581713,1.4243588599996733,-0.6968584017928905,0.6812735725682937,0.7156944090143436,-0.6439366908588209,22.117067101469452,2.384112480329529,16.04818194662684,21.8297887135954,9.075539309164656,17.36183757281794,17.568799839554845,9.393741839532485
141,-37.47423103613221,0.9835903964360025,0.36533586583332056,3.0,7.0,0.0,40.576790985006575,6.047620282019202,12.984110946188446,2.0553763457195657,-0.16200197900475033,-0.7517047242353472,-0.13550772882152168,-1.5060397215972554,0.28749637273198814,0.5563438127406672,-0.01733946659210002,32.734854791013426,3.9441686131194325,-3.7125972562265366,4.2881728969345465,-13.506966552566322,9.780505082198083,13.271250070869515,5.822482724039647
142,-39.20033450657747,0.9424884335887618,0.3470325062439781,4.0,15.0,0.0,44.204960925614905,2.609986079555697,12.032318563529872,1.1772170005192037,0.7963259595491969,-1.401153896567071,1.1962163542516777,0.5294573725558114,-0.24076376029998567,1.5440663190966546,-1.0210629280608352,16.774636048205867,12.191633705260237,-14.249143960470484,17.003242324816185,8.980585851956738,-0.28696018292707715,21.188683914143613,-9.675768344282856
143,-39.32407639163029,0.9724116731106728,0.3037260837296746,4.0,15.0,0.0,40.84224226437227,10.22830474227268,1.844950831277786,0.6572598340596459,-0.2864996323403306,1.0682156234157032,0.8412782416027088,0.11379301940815933,-0.34485240410487206,-0.9267791362898928,1.3078594809467676,11.440916819486525,9.699727007425608,12.1991100446774,11.780421733453512,10.438247268023373,9.592069012651253,8.518442804363733,12.641241178839953
144,-38.83879717509606,0.9988139377414634,0.32450183095339463,3.0,7.0,0.0,43.503927682075286,7.462655348309024,3.8921521298813997,2.0586963941530696,-0.7264997087248095,-0.16526425345804652,1.1143499890434865,-1.0646660867435693,0.543210627354253,0.9021304169838587,-0.005597554490586215,15.475414903591052,4.635007959637541,6.819421732219029,11.799875031597946,3.318812971177546,9.576913748540091,10.973884172203544,7.440868814676362
145,-41.56642299132718,0.601478298722704,0.36533586583332056,3.0,7.0,0.0,44.65325785971824,7.970507937698493,3.3646890981242867,1.7154964119082374,0.23340120770043418,-2.223122759502422,0.5037486863738124,0.2892739269197273,1.4669183957524023,1.3922845657586587,0.36019191559042807,13.74262001271747,8.755830436737186,0.4903910250087131,9.66546565093489,8.9438247659769,12.90623227172457,12.655112637593358,9.182441749318109
146,-41.12466930465131,1.0,0.3470325062439781,3.0,7.0,0.0,42.78303036511585,3.360020239360654,3.6700557487946086,1.6076192528046382,1.7452224249983546,-1.3751505643516433,0.34944670913227927,0.6658236343846945,-0.06782462742225724,1.8850153231873317,-0.7771068049188102,9.26007251998921,9.765083833151133,-1.686858994796245,4.642509143108933,5.803630096417521,3.1111000755797464,10.278131562790248,0.507994942540964
147,-39.839902120700316,0.9974259887217218,0.3037260837296746,4.0,15.0,0.0,45.182379647462305,7.403365274959958,0.866046795554042,-0.6430661446072691,0.3034213805772937,-1.147166204555143,-0.927226788269372,-0.1575040228696822,0.14817805716530996,1.3772264023460516,-0.956203041992626,6.84643990109354,7.666142389311506,6.4098656595370835,6.600343486227402,7.266959420666799,7.5316944065393985,8.596107787464177,6.575248694543217
148,-39.07705126750141,0.2688697906932497,0.32450183095339463,4.0,15.0,0.0,46.36683832030986,15.164418274079733,2.0889565916535737,0.928884547294711,-0.7821973492165,0.1594439284039362,0.3165998151607501,-1.387664986932058,-0.35351555419165187,0.27236437231740507,-0.014817109242530666,17.104817772036164,13.530441965459973,15.497489719318276,15.825781544876085,12.26564635262114,14.425939626899016,15.733375624963765,15.133465976058297
149,-41.91787815152942,0.9824498792506579,0.36533586583332056,4.0,15.0,0.0,47.88845250740544,8.842662613281197,5.397427685557919,-1.1723431994310842,0.030973410515046096,2.0803618599489857,-0.5243623835049416,-0.7907129799651479,-1.851470631366658,-0.7419083681581133,-0.2763300914881833,2.515024971696314,9.009839356711257,20.07126531214862,6.012454567286486,4.5748464838873035,-1.1505162314546027,4.838265846837499,7.351190927130124
150,-35.945233804060365,1.0,0.3470325062439781,3.0,7.0,0.0,42.291324600843396,3.8462262528947724,18.993395401078075,-0.016374197521195094,-0.4810666131492819,0.47102973904677353,0.16278444422369154,-0.6056349605909139,-0.09961879836655341,0.10177963605659568,0.12628258931827496,3.5352246449993614,-5.2908621449070035,12.792680332276767,6.938055567180086,-7.656838022324794,1.9541270261385528,5.779367124295517,6.244761404088727
151,-40.97090154749265,0.9559116986880523,0.3037260837296746,4.0,15.0,0.0,44.51136703640175,7.690660823727031,11.833245674620066,0.09536272654902017,0.1959835224976872,1.4571019498413487,0.3055461773118342,-0.6921593632147826,-1.4478983247797403,-0.9397166450771197,1.0998450057346374,8.8191113951832,10.009781993619592,24.932906169167637,11.306263804798988,-0.4998309671820742,-9.44267576526247,-3.4292371020002754,20.705396980588908
152,-38.497889949642726,0.9691425334642242,0.32450183095339463,3.0,7.0,0.0,42.99449375002436,8.37137707810555,3.5369968273354755,1.0764495135319934,0.8255235814300912,-0.31071818109359484,-1.0355517237427678,-0.3631467367506855,-0.04332306561130084,-0.1717472728199559,-1.6626079081111689,12.178775592255025,11.291251366514402,7.272367857382054,4.7086339166855975,7.086928222361144,8.218143532487932,7.763907519037845,2.490738182013473
153,-40.23888837474923,0.9957519126920948,0.36533586583332056,3.0,7.0,0.0,44.1417334179097,9.09871166256946,3.2150057331824624,0.03879786829191101,-0.07980257381744774,1.0604628046448181,-0.46350666865073775,-1.2157629353210064,-2.4191682608531324,-0.7143664744167209,-0.07713532045057446,9.223447031563213,8.84214593022365,12.508105659329305,7.6085350654890345,5.190026855321685,1.3210718343935932,6.80201935172636,8.850721165089997
154,-38.37271825915688,0.9038976817867573,0.3470325062439781,3.0,7.0,0.0,42.190357614348166,2.3528222096259097,4.861520878076046,1.2339577512764954,1.0156251274506132,-0.8741017436128837,0.6852349513357756,0.8832718840843262,0.6499065343912684,0.5661306764813869,-0.6683658495272183,8.351733580120362,7.29030497102571,-1.8966416665107997,5.684106231932207,6.646866915119427,5.512356395367109,5.105078313059488,-0.8964523220436953
155,-39.271315176661275,0.9655184135875358,0.3037260837296746,4.0,15.0,0.0,48.08636326235717,-3.0466152676394214,12.526166236410864,0.3338021993411635,0.11105015987590705,-1.057527461094863,-0.0494866434193289,0.26245512126132475,0.7300016454424682,1.813681259829901,-0.9353890130533122,1.1346465713875502,-1.655582504453806,-16.2933800448832,-3.666493189591923,0.2409412108773039,6.097506696026398,19.671857692853006,-14.763453540857501
156,-39.84723644738956,0.9751518468411786,0.32450183095339463,3.0,7.0,0.0,42.23707074418238,15.54357214618678,6.0174033014588835,-0.06512696466554879,0.5512244062166275,-0.153070758659154,-0.46850218728220383,-0.7762570184359256,0.7201668056671177,-1.0494951208764443,-1.4909773534241773,15.15167693399431,18.860511707999425,14.622483657674369,12.724405537694137,10.87252060066981,19.877106260209192,9.228336740959874,6.5717600972917065
157,-39.15730841677919,0.9869672367695357,0.36533586583332056,3.0,15.0,0.0,43.362636966294914,13.934772936850601,7.859111351746375,0.010200084220799828,-0.44207168970742544,1.5947298631547586,-0.5600315149885379,-1.3862959816557892,-0.46352634378265656,-0.5377789158645474,1.1299958569237394,14.014936534539059,10.460482301985273,26.467932507339107,9.533422900068462,3.0397184505392048,10.291867786594832,9.708308554449678,22.815536203426333
158,-38.93966314391027,0.727461492339322,0.3470325062439781,3.0,11.0,0.0,42.35297961738499,9.683134028160516,2.389493409558332,-0.2720925282177863,0.5474441995575456,-0.15128292604650678,-0.5847854053923133,1.732625382234032,-0.6190571539224998,0.17320232684362272,0.22878148446027952,9.032970725194051,10.991248335104208,9.321644473393688,8.285793155969687,13.823230960242222,8.203901038722766,10.096999846673521,10.229805877507326
159,-36.55881733053242,0.9503586998914442,0.3037260837296746,3.0,7.0,0.0,41.18286185419535,8.28040080119715,15.820694647648526,0.8437682499366765,1.0723952989123229,0.7483401462348789,-0.39671856368934943,-0.5491588484298275,-0.17322253780123253,0.22758516762216957,0.5212732781261002,21.62940063682609,25.246439366862777,20.119661747355813,2.004037544014248,-0.40767365286545143,5.5398999245530955,11.8809562444814,16.527306162408948
160,-39.365438533624086,0.7769581805368919,0.32450183095339463,4.0,15.0,0.0,47.33493551071484,-5.356096403369193,13.528947332294802,0.6458017414897114,0.04651720474038601,-0.7120545745175867,0.7505146097294325,0.7619864571230308,-0.6618459295445926,1.5095254577764088,1.5472424540377834,3.3809213443493746,-4.726767590390937,-14.989445239737208,4.797576223778087,4.9527782429702025,-14.310175126271684,15.066194011646044,15.57646526759854
161,-38.143350258554,0.9699403709442492,0.36533586583332056,3.0,15.0,0.0,43.10262825846027,5.847155924435405,3.6609063245820375,1.1094181722631977,1.0432493870161892,-0.8547337364243663,0.12246937746314149,-0.3350497685967584,0.5428040402581944,-0.9266691717826567,-0.45940839685202717,9.908631927879991,9.666394203479307,2.7180557829258065,6.295504842957845,4.620570107529785,7.834310668425312,2.4547068926610787,4.165304818833724
162,-41.08831230681025,0.569549105790608,0.3470325062439781,2.0,7.0,0.0,46.546314108615206,5.744254443558672,0.0935220501453096,0.7630341527156117,-0.528760488108946,-0.7677183649347475,-0.2572029189880638,0.9446216338437461,0.022045690087294956,-0.20880355948211593,-0.8356860688584196,5.815614961851526,5.694803678674889,5.67245584813577,5.720200299271551,5.832597395367351,5.746316201692504,5.7247267065982665,5.6660993691211585
163,-35.54729441988037,0.9599328167448941,0.3037260837296746,4.0,15.0,0.0,39.76125323072491,12.675328195016519,8.508557402771839,0.04888371834121806,-0.5556405253182469,-1.3917757575729242,0.03924393338933248,-0.6784472580307328,-0.4499590197104705,0.22258382560436485,-0.5321388311305884,13.091258118583703,7.9476288900399155,0.8333242699210306,13.009237454970208,6.902720755308872,8.846826046915035,14.569195452099812,8.147594404097998
164,-37.34406788753028,1.0,0.32450183095339463,3.0,7.0,0.0,42.466164469147756,0.9371396653149953,15.280067154770238,0.9418942394321428,0.01283445291152538,0.7723330828287074,-0.39541605800128826,0.3715369262113651,0.16155351961528241,0.8516342666572767,1.7807920003244557,15.329346896529376,1.1332509676978395,12.73844103678837,-5.104844255019213,6.6142488483015685,3.4056882941260014,13.950168451141689,28.147761018950302
165,-38.10914274204852,0.998087580959817,0.36533586583332056,4.0,15.0,0.0,40.56743268957989,8.424392418768985,1.4952495977214757,-0.10551765984243239,0.30664380402433156,0.5704922155087482,0.008126500669841628,0.060235914999534484,0.9862914079919709,-0.2559178432555045,1.0417167396378948,8.266617180337077,8.882901443380149,9.277420674511674,8.43654356562645,8.514460146440424,9.899144249805127,8.041731366591444,9.982018954652274
166,-43.18716227691786,0.5032140478427445,0.3470325062439781,3.0,15.0,0.0,46.53438935593093,16.1668745636902,0.22065640247332644,0.938959761993171,-1.0394463058964896,1.4382338509819734,-0.10318799611348128,-0.6168046634984972,-0.5462626139084009,0.46673462072827804,0.3570704675907268,16.374062046838823,15.937514081266892,16.48423007116324,16.144105471689368,16.030772665613853,16.046338220499496,16.269862546009854,16.24566444849824
167,-35.081853342628314,0.752816079889591,0.3037260837296746,3.0,11.0,0.0,38.48279403151409,6.594842201651119,9.092860236829031,0.9978986950091658,0.4180634638483953,0.3451688499556468,0.034593491587686265,-0.8865902618470518,0.25729044799784545,0.15053508911559083,-0.16092857403205635,15.668595565883544,10.396234848549204,9.733414312404825,6.909395985761871,-1.4667991366577766,8.934348285566655,7.963636727717789,5.131541169865437
168,-37.36533904729089,0.964256209374814,0.32450183095339463,3.0,15.0,0.0,42.79792244671225,-1.1704755097001656,17.125721709547935,-0.152629005885937,0.4930447737454404,0.0002711699259919653,0.4273941820620797,-0.7485799984469359,-0.3263465023582742,1.0790238228769535,-0.49368443139388807,-3.7843573893076767,7.273272075811273,-1.1658315290116286,6.148958312574876,-13.990448240436216,-6.759394889972299,17.308586198863086,-9.625177694088304
169,-36.69703741836547,0.9494676114340553,0.36533586583332056,3.0,15.0,0.0,42.572038430664726,9.937604845293745,5.6784902713244865,1.137291620744265,-0.18987728689117434,-0.6197921169135823,-0.1119142396127902,-0.6630430556724866,-1.2862191644074,0.8749277869975364,-1.001478082646377,16.39570424934891,8.859388518936722,6.418121339156359,9.302100924429839,6.17252130418827,2.6338218334152144,14.905873771870716,4.250721296041593
170,-44.0416122443481,0.7462790178297168,0.3470325062439781,4.0,15.0,0.0,50.04226977377604,-0.9521038987087085,1.7982041900062338,-0.8215524876687252,1.3658866220871593,1.2118572177277633,-0.22376919249182933,1.6070452204787442,-0.5539900550047405,2.1740130709638157,0.3849664031763017,-2.429423024344655,1.5040391482018824,1.2270628278986524,-1.3544865982418275,1.937691550285661,-1.9482911368400169,2.9572155146267445,-0.2598556995054536
171,-37.06124965863095,0.9575265546439532,0.3037260837296746,4.0,15.0,0.0,39.653838627944396,11.909055709006559,4.4840733804317345,-0.2733145473106867,-0.5188473977692677,-0.8719957941570838,0.14691579783754619,0.5765798795277758,-0.34042960389884447,0.3182924885113501,0.32020999785065357,10.683493222925959,9.58250590416311,7.998962580578349,12.56783692725479,14.494482198489594,10.382544384252832,13.336302583931678,13.344900836516777
172,-37.60320941255112,0.43904483866024896,0.32450183095339463,4.0,15.0,0.0,47.11926511631842,10.395069751813349,1.209794701458768,-0.34512653816310235,0.06381507621687627,-0.08837690423140217,0.23954847999935336,-0.29676887248655287,0.39553693008854146,-0.35823714450385363,0.6460852885047098,9.97753749461082,10.472272892893713,10.28815184134287,10.684874233659068,10.036040342321224,10.873588234065734,9.961676352526867,11.176700310536805
173,-42.11570632169937,0.2496614082156518,0.36533586583332056,4.0,15.0,0.0,46.668925681525735,7.056687446680227,3.008090827840102,-0.6487211653253944,-1.8172125854038135,-0.5873296483945986,-2.3101131123380245,-1.0087888510928726,0.6059862905297355,0.17544385965547338,-0.8832443436762066,5.105275259439166,1.590346936291418,5.289946518425883,0.10765738218306442,4.022158956480403,8.879549249019572,7.584438511710723,4.399808237726179
174,-41.38573674852402,0.987887341462626,0.3470325062439781,4.0,15.0,0.0,49.84030825987851,5.670288618686355,4.804458228754903,1.722484373912605,0.8970286520814238,-1.385478943993334,-0.29074496408365536,1.0567180269510583,1.1121631636935565,-0.9492175166674751,-0.8981295501583133,13.945892842832508,9.980025307607871,-0.9861870945490727,4.273416583525588,10.747246238745014,11.01363008221195,1.1098127098550092,1.3552627109403064
175,-36.82117051471335,0.9492035184844971,0.3037260837296746,4.0,15.0,0.0,40.92390100990503,11.137702337702237,9.59784854121618,0.6529743160815844,0.9381812850685891,0.8289963047943331,-0.24981030408349528,-0.9419166464768194,0.05018530968073005,0.896159680874189,-0.2364115596347427,17.404850924757504,20.142224215994116,19.09428331234613,8.740060875073691,2.0973290263674595,11.619373339011915,19.738907223477327,8.86865999493528
176,-40.49285679113362,0.9578354592654598,0.32450183095339463,3.0,7.0,0.0,42.33797759924574,13.522839529263653,5.115316702573203,1.1618932705809821,-0.3894440917688371,0.34314563652148883,-0.22299803735666227,1.0605123540969186,-0.5450722530871945,-1.28785982448188,1.0475507859245956,19.466291582873957,11.530709661920069,15.278138135177137,12.382133944132075,18.947696087460848,10.734622328937519,6.935028658518498,18.881393561297422
177,-38.818902375682335,0.9066099364042334,0.36533586583332056,3.0,15.0,0.0,46.54908206417677,17.41686927040675,9.376733726247588,-1.2461168605568649,-0.3379432651276648,-1.0961329428816822,-1.208963024869403,-1.5361103297241872,-1.5076093019421308,0.5262988424324163,-0.263865346087129,5.732363277177432,14.248065258725944,7.13872253643706,6.080744901327517,3.0131717344446614,3.2804182828813886,22.351833376327853,14.942674180563575
178,-40.017756928998786,0.9557882850751841,0.3470325062439781,4.0,15.0,0.0,50.038057817348246,14.278950237723741,7.142343697371435,-0.9499850948483175,-0.5634409763588014,0.3802676799665184,0.39695976071954653,-1.822098261664119,-0.7923137439054827,1.7659152904853437,-0.6012925472367023,7.493830182937056,10.254661131386648,16.99495270504666,17.114173282809066,1.2648982025355728,8.619973162599653,26.891724182813583,9.984312202691264
179,-37.246351720154905,0.9694759681692828,0.3037260837296746,3.0,15.0,0.0,39.56627564962719,13.136437629800712,14.427387834471894,0.7019349890183519,-1.0967777910758307,-1.8246015468467394,-0.3616649627490684,-0.8176030284216503,-1.2434845703574509,-0.35186030223863296,-0.06243961710636356,23.263525950954246,-2.687200930285684,-13.187796529934536,7.918556946080072,1.3405616441228165,-4.803796532927885,8.060012585849455,12.23559705757128
180,-38.00920588300874,0.9868104806137664,0.32450183095339463,3.0,7.0,0.0,42.566291577642076,5.460823056453696,3.6751817193881813,0.40024713316359967,-0.13313194110372395,-1.6262617699220587,0.018169509299726515,-1.3888810133324903,-0.18362447382605546,-0.21898855955931473,0.5975331238674171,6.931804003494085,4.971538980242626,-0.5159844713037227,5.527599304882305,0.3564329458487956,4.785969747015904,4.6560003056061525,7.656865870020141
181,-39.931462645693344,0.9800674031072029,0.36533586583332056,3.0,7.0,0.0,42.50182694836012,21.232866284393772,13.415690820136382,-1.4383184361347932,-0.7605705306403139,-0.9517692008512777,-0.3031927363308518,-1.7176209078288345,-1.7145997522131857,-0.3778554349766095,0.6616763420724869,1.9368308443073126,11.029287198416256,8.464224953644745,17.165326274867933,-1.8102047612398415,-1.7696738715807783,16.16367459403943,30.109711512637055
182,-36.1799027717673,0.9979848880884263,0.3470325062439781,3.0,7.0,0.0,42.01701148739631,9.862958291758632,6.483828494641531,-0.008352832491060336,0.12970228194198588,0.5330387763297216,-0.29879838387187996,-0.20284115595159447,-0.6503347595128832,1.4073675919957311,0.07572137827029118,9.808799958442128,10.70392564323411,13.319090298474135,7.925600816257298,8.547771024913658,5.646299246973152,18.98808838717559,10.353922721841077
183,-37.50832143868472,0.9349246580231242,0.3037260837296746,3.0,7.0,0.0,43.374866971637076,28.338203748963647,24.759794761173097,-0.26209585197269336,-0.6651999236909948,-0.09904724137506432,-1.1848040482645574,-1.5626369327409853,-0.8096399449197631,-0.25381721499473064,0.13535704477624014,21.848764246364954,11.867990163226612,25.885814380856683,-0.99730131827382,-10.3523659919322,8.291684882302821,22.05374159884157,31.68961639710227
184,-39.48349336230416,0.9453492890524161,0.32450183095339463,4.0,15.0,0.0,43.05466129601575,7.807114952382938,1.0306177311634626,-0.024653984394366224,0.7437035415649828,1.149061980372837,-0.46309313611246256,-0.31588144007528757,0.9525113853758893,1.2571129273400596,-0.6094921267700857,7.781706118922277,8.573589009048872,8.991358603560986,7.32984295512534,7.481561939295898,8.788790075286403,9.102717825374409,7.178961559529159
185,-40.68094065353578,0.9406191434672048,0.36533586583332056,4.0,15.0,0.0,45.27814101038044,-7.900714537825751,17.275764147952177,2.1294412310206,1.1563966771774663,-0.964557931775856,1.1477743534493583,0.4670653598606173,-0.13305938257566438,1.331087215239563,1.9265276926834027,28.88700993621108,12.076921718567748,-24.564189874221988,11.927964487433664,0.1681964608046833,-10.199417048875066,15.094834253007393,25.381523505471208
186,-35.33565615051698,0.960245261627665,0.3470325062439781,3.0,7.0,0.0,40.8065743860404,8.61881164148834,19.570024315467094,0.7665895380479373,-0.6945688237725367,0.09276557244308714,-0.017113665135944867,-0.8180985684828013,-0.07124729568441052,0.2864620964125253,-0.8563809882377664,23.620987541069162,-4.973917128505581,10.43423614983778,8.283896798651138,-7.391397236168901,7.224500332533153,14.22488183374114,-8.140585121628488
187,-37.50832143868472,0.17118244993242884,0.3037260837296746,2.0,7.0,0.0,39.701889567759196,28.338203748963647,24.759794761173097,-0.26209585197269336,-0.6651999236909948,-0.09904724137506432,-1.1848040482645574,-1.5626369327409853,-0.8096399449197631,-0.25381721499473064,0.13535704477624014,21.848764246364954,11.867990163226612,25.885814380856683,-0.99730131827382,-10.3523659919322,8.291684882302821,22.05374159884157,31.68961639710227
188,-45.740664861676784,0.9211341325286309,0.32450183095339463,3.0,15.0,0.0,49.225948228522476,9.439904078378422,1.7870972115706336,2.0961834281435245,-0.786647878403444,-1.9396326898518974,0.24799209656959087,-1.4301429611739285,2.496443354806657,-0.6512477100612053,1.1454325343368068,13.185987637754288,8.034087848395673,5.973591906872849,9.883090062649494,6.884099580317126,13.901291036597438,8.276061111686282,11.486903366534014
189,-37.930261691719004,0.7998262917417739,0.36533586583332056,3.0,7.0,0.0,43.176435608677714,-3.61647526792272,19.35330135323827,0.17066390976910667,0.2530790300638014,0.9611681493444364,0.18239085758716683,-0.4554161325280649,0.667298130873676,0.7079238607880312,-0.3694226411197833,-0.31356519203933386,1.2814394670872762,14.985301577474484,-0.08661003696271585,-12.430280921864657,9.29794655132816,10.084188545055943,-10.766022968223076
190,-35.33565615051698,5.780220806648268e-11,0.3470325062439781,2.0,3.0,0.0,43.13129659678697,8.61881164148834,19.570024315467094,0.7665895380479373,-0.6945688237725367,0.09276557244308714,-0.017113665135944867,-0.8180985684828013,-0.07124729568441052,0.2864620964125253,-0.8563809882377664,23.620987541069162,-4.973917128505581,10.43423614983778,8.283896798651138,-7.391397236168901,7.224500332533153,14.22488183374114,-8.140585121628488
191,-34.18745419144678,0.5374145929429454,0.3037260837296746,3.0,7.0,0.0,39.627465138315635,20.410084624449745,38.6381685363429,-0.3876922560386319,-0.3865706487771374,-0.6407838764023623,-0.3841911056654889,-0.40748323840046996,-0.5155944518077312,-0.3555620902430239,0.2105186990647273,5.430365895394081,5.47370274579529,-4.348630787355852,5.56564393358266,4.665678583397591,0.4884592990992971,6.671816656505424,28.54414159896433
192,-47.56760857914792,0.8943459099258616,0.32450183095339463,4.0,15.0,0.0,55.24616158477538,0.7219347512771597,7.8631076800631154,3.471442023481635,0.429957307390346,-0.8045785105629698,0.7645676941706542,-1.3402606602329663,2.3205057735016577,-0.3750922309707926,-0.6383723451502004,28.018257187009446,4.102735357117447,-5.604552714344271,6.7338128592385775,-9.816679139487139,18.968321520528846,-2.2274558508012876,-4.297655738613282
193,-36.18575444877108,0.9586268928377147,0.36533586583332056,3.0,7.0,0.0,39.64680489452551,1.4865508045503575,14.910398803271606,1.7168490018373617,1.0675444924912492,0.532537986646849,0.3089690625970034,0.00661112050896806,-0.4002201839316923,1.2340666467201227,0.6439972032731309,27.08545410694421,17.404064927831072,9.426904563346206,6.093402745744667,1.5851252478755593,-4.480891746989889,19.88697665696348,11.088805933544311
194,-36.36096718378772,0.8482475804417687,0.3470325062439781,4.0,15.0,0.0,40.669203092219725,5.125255084187313,17.704720999726234,-0.5707945648890973,-0.33487272355319286,0.08824331332250035,-0.613145230266691,-0.34660322056006354,-0.3175468258533889,0.7942438063034508,0.3137851902627442,-4.980503435334286,-0.8035730567404187,6.687578326653607,-5.730310149997348,-1.0112582334351874,-0.49682287189559027,19.187120080550514,10.680734331635213
195,-37.48553234509491,0.4608445231878139,0.3037260837296746,3.0,7.0,0.0,40.16206628662949,17.296193840918942,18.15955211114536,0.4432168495893109,-0.7672293216369861,0.33658763817066767,-0.7543152173214416,-1.6567599699533824,-1.2329981794596896,0.3186092888720302,-0.46245332481820545,25.34481331757371,3.363652993453389,23.40847459624652,3.598167343740288,-12.789825169109125,-5.09450085192665,23.08199582528554,8.89824858991031
196,-45.873648007050036,0.6116924418059535,0.32450183095339463,3.0,15.0,0.0,53.5335734472828,14.500448113928762,0.6013486603126367,-1.942647505127412,0.834058765293856,0.9566565863299064,0.050889885853006245,-1.454826807038924,-2.4264479223472946,0.5249896990299321,0.7481603587779053,13.332239639260706,15.002008235060234,15.075732270497511,14.53105067860993,13.625589962528995,13.041306906506836,14.816149966118346,14.950353343378877
197,-36.175608911410265,0.7846047609285605,0.36533586583332056,4.0,15.0,0.0,43.32097097597914,9.390835112749127,7.115337489044856,0.7084887954026405,-0.6365558418074723,-1.3008052622102488,0.10516286213121487,-0.13015339126538106,-0.014771580537507822,-0.4405396566729021,0.0023427988419378876,14.431971999245766,4.861525467665912,0.13516666459771898,10.139104368126615,8.464749808552238,9.285730331978153,6.256246778213476,9.407504917178459
198,-37.222651820759694,0.9662597137984832,0.3470325062439781,3.0,15.0,0.0,41.2390789132752,8.061812479444882,8.140159094025758,0.38277419232201787,0.9975243978689396,0.624077033331148,-0.08525731878665421,0.15904838869410556,-0.3049099397747251,-0.5171906363705092,-0.7752080031624697,11.17765530203332,16.181819778270302,13.141898817688041,7.367804340591445,9.356491667063349,5.579797060328807,3.851798417448512,1.751496002740355
199,-35.239874844177145,0.8049367944639155,0.3037260837296746,4.0,15.0,0.0,40.0774045356019,2.890045627728392,13.777596435305421,0.5007789301205627,0.6448788446183396,-0.6489533216876882,0.3962855434936378,-0.22514707271349643,0.4067477979733709,-0.03765645193898831,-0.08823192785016795,9.78957563023352,11.774926098545906,-6.050971343835512,8.349907919129407,-0.21193987870852693,8.494052639154637,2.3712302297275367,1.674421733099793
200,-39.894140092010616,0.9612150990283328,0.32450183095339463,4.0,15.0,0.0,51.07621842849709,6.337706416577534,3.2693877457741647,-1.7421991043242175,0.7101152552196417,0.5609598829888517,-1.6023898747357874,-0.30780266430595427,-0.09248802182568094,0.19121989176829668,0.40556527193269243,0.6417820142012118,8.659348530079924,8.171701783892194,1.0988725961637522,5.331380157779009,6.03532721138976,6.962878387473065,7.6636565467458455
201,-37.5684234233878,0.9559893882302587,0.36533586583332056,3.0,7.0,0.0,40.64769799933327,13.469454122719716,4.8856447473984845,-0.3611454830366881,0.49205603929985753,-0.4832463303821266,0.14930174240105268,-1.3321749895602646,-1.4993110399970533,-0.10797115316190042,0.1555566547841447,11.705025590474833,15.873465126550768,11.108484226988686,14.19888939625886,6.960920382358978,6.1443530154415535,12.94194542540372,14.229448676088753
202,-43.391605404371674,0.9093213475627671,0.3470325062439781,3.0,15.0,0.0,45.51940363604119,7.006397932890421,0.5185493689895025,-1.888590045721657,-1.4124315834837105,-1.5188677572201261,-0.862748480276102,0.9232811872983997,1.2291738180260012,-0.245165838748519,0.11944847501582667,6.027070756401599,6.273982426534099,6.218790015805423,6.5590202528465955,7.485164809963885,7.643785240606221,6.879267341909594,7.068337864236636
203,-37.68025032162835,0.7692709087472576,0.3037260837296746,4.0,15.0,0.0,39.46619204521202,12.488371111906716,4.570145749344265,1.5894915110760375,-0.7332938241348856,0.6363395720591813,-0.7287898819391521,-0.38571294693172925,0.054974377300188726,-0.11925270029323343,-0.09964905037250843,19.75257898486966,9.137111458516268,15.396535702292532,9.157695130797391,10.725606727019624,12.739612028648022,11.94336889056377,12.032960427920603
204,-40.78897660166627,0.9808297220274936,0.32450183095339463,4.0,15.0,0.0,44.59325499910306,7.545701017165324,4.943413324015074,1.3965471904615816,-1.5454807168593638,-0.8542039874764108,1.4633268451289085,0.7192969600091843,0.6595840752694999,1.5317231784149077,0.2806341081983132,14.449411006108924,-0.09424895056562388,3.3230176440476287,14.779530440764512,11.101483193198263,10.806297723160732,15.117641786044295,8.932991406805954
205,-38.77670952871228,0.9814405498969206,0.36533586583332056,3.0,7.0,0.0,40.442537477640414,11.819999625439465,4.556278782104483,-1.0349707558600605,-0.43903684824675093,-0.5685415905435157,0.06532191206584102,-2.1350666130967357,-1.272603829799298,0.39143082076614255,-0.15138327316450906,7.104384330415632,9.819625349210767,9.229565639702109,12.11762446739155,2.0920409178071253,6.021661797700018,13.603467568757983,11.130255229954486
206,-40.792739756326995,1.0,0.3470325062439781,4.0,15.0,0.0,48.23632542687226,10.819874636754705,10.30807115993043,1.585347748537239,-1.6026146418868108,-0.1500880717389177,-0.008533890593871163,-0.0695631221734741,-1.7259299407178443,-0.17637738619260512,-1.5587002707451851,27.161752041912056,-5.699991133760964,9.272756113013198,10.73190668524202,10.102813023283598,-6.971134009219345,9.0017639888788,-5.2473186710894915
207,-37.97017188143712,0.9328703094316216,0.3037260837296746,4.0,15.0,0.0,44.3168141295657,4.739113762214764,10.983962756020619,-0.5628311788954181,0.48238531820424746,-1.072228649395996,0.5930042731660534,-0.3090924084177396,-0.626638272426564,1.9440757713276566,0.009064003203505422,-1.4430029446996864,10.037616131421373,-7.038205788689146,11.252650612831772,1.3440542599855982,-2.1438576836157175,26.0927696293598,4.838672435822519
208,-37.74850816033095,0.9776631041877356,0.32450183095339463,4.0,15.0,0.0,46.648735424448894,8.383475886531802,10.691248545728095,0.21042048913305383,1.0736357124146707,-0.5209529822444953,-0.9965954968257307,-1.5599844285716309,-0.8016021560014304,0.022574134974115312,0.4589225635040192,10.633133634966958,19.861982135526898,2.813838072717627,-2.2713742695854595,-8.29470536679312,-0.18665199807099597,8.624821574244882,13.289931076195955
209,-37.25433809667872,0.9931564558321971,0.36533586583332056,3.0,7.0,0.0,41.90087196877261,12.424312226513534,8.173858780708262,0.7509514598503036,-0.20743011604276346,-0.8499608400535617,-0.7581223034165174,-0.11711049206190038,0.6317934983639559,0.6228636798839162,1.1815552858421845,18.562483410496625,10.728807751114058,5.476852350783559,6.227527579881659,11.467067602660304,17.588503060710146,17.51551198551694,22.082178274586933
210,-40.60791558930203,0.14139779160104213,0.3470325062439781,3.0,7.0,0.0,47.998432137085,10.368717345423134,1.4152731984119613,0.01404821720296101,-1.304639746655796,0.23872892264700352,0.3781971684904524,-0.7013111731805816,-2.070953205583718,-0.598993511041644,-0.9304505453926322,10.388599410715955,8.522295678398216,10.7065839913312,10.903969661702964,9.376170438273807,7.437752778395161,9.520977883223216,9.051875626081149
211,-35.493388950590514,0.9707538667465702,0.3037260837296746,3.0,15.0,0.0,40.101481357163735,12.043228026531512,7.391261972974803,0.4622487382063729,-0.6149359737723072,-0.21597067085589156,-0.1542260681679367,-1.008819814684402,0.2739191233672706,0.5872554906557536,0.39878952397428213,15.45982954729186,7.498075147774027,10.446932219756503,10.903302753640421,4.586776492671203,14.067836026746614,16.383787203036043,14.990785870303348
212,-36.30048772420458,0.5437301478719488,0.32450183095339463,3.0,15.0,0.0,42.240396732825126,9.729159649937309,6.321418301622336,0.31397169778229483,0.8751093712449807,-0.21507859666884926,-0.9477472080673479,-0.9154282149028318,-0.3820076552269671,-0.06833444567379332,0.6690985048023133,11.713906086489745,15.261092045246546,8.369557872667595,3.7380531035489026,3.9423549784290826,7.314329466825723,9.297189034423774,13.958811183782792
213,-41.818828738347186,0.7130877042992386,0.36533586583332056,3.0,7.0,0.0,45.08124835410062,5.405024398775098,0.925835661941036,-2.0294386689890063,0.2013740189841151,0.8407484698764919,-0.5951181155604242,0.26361570646725707,0.10490398251839389,1.824627760181367,0.6384672398512317,3.5260977053029268,5.591463646938983,6.183419314909114,4.854042824322111,5.649089220870265,5.5021482468702665,7.094329848918604,5.996140138410429
214,-41.62301213942897,0.9767051014937217,0.3470325062439781,4.0,15.0,0.0,46.19600909194758,9.956953712122566,3.996830448858664,-1.0646664912914752,0.02831940716146686,-1.537132929514767,-1.1001336671122517,-1.0009391435225932,1.7126745309447924,0.20391681673356,1.517819540357796,5.70166226184928,10.070141580959143,3.813294015494626,5.559905973593777,5.956369665836953,16.802223426387442,10.77197465427759,16.023421066897267
215,-37.22977232027129,1.0,0.3037260837296746,3.0,7.0,0.0,39.59197445290057,15.399081948501156,8.198147165572335,-0.40742382133269683,0.17824541234720315,0.20875221440702335,-1.2080829370288788,-1.017211977622453,-1.3270416566222747,-0.004396457446560337,0.435395008449736,12.058961502455858,16.86036407051165,17.11046332334904,5.495040242521551,7.059828457369413,4.519799152666838,15.363039143347077,18.9685143029277
216,-35.776329787316286,0.9880132143716551,0.32450183095339463,3.0,7.0,0.0,36.960495130631934,9.28810435723032,5.767708032021907,0.6822040054516454,0.661542353496209,-0.5240414645380651,-0.6868392610504575,-0.7856323581482525,-0.6086168773834819,0.1835221062690514,0.518457540540236,13.222857878951292,13.10368750301308,6.2655861931015995,5.3266160345616065,4.756806294922334,5.77777990512152,10.346606283611907,12.278416078066563
217,-40.79046067007238,0.9920329928445369,0.36533586583332056,4.0,15.0,0.0,45.656362693500135,5.283435553294598,0.3041057867687141,0.5137341464959322,-0.19038818258247595,-0.2138809329833276,0.6540929083654217,-0.1304597162620312,0.8102066144282337,0.47747076876804717,1.7915898719572942,5.439665080104697,5.225537405238888,5.218393123894876,5.4823489918129,5.243761998639109,5.529824073220512,5.428637177089867,5.82826840087303
218,-39.36676744840572,0.96278761951861,0.3470325062439781,3.0,15.0,0.0,48.8213238656346,13.133494151395132,7.4676360171969876,0.8244849062603749,1.3892133307750276,0.5028984768470528,-0.18032601163985756,-0.2720490626137585,-0.4393643468594427,0.30717966330333035,-1.6621096245044256,19.29044733302039,23.50763365586092,16.888956930091688,11.786885132035849,11.101930772975951,9.852481130115327,15.427400068829526,0.7214644549161235
219,-38.18860878939157,0.9126354280434057,0.3037260837296746,3.0,15.0,0.0,41.40322533121191,16.610153141749034,5.313607027302693,-0.47563759470897127,0.24645883075856495,0.37189817901719224,-0.9177924998502501,-1.2108921944892226,-0.9077614137729646,0.3437463222459316,0.43906578053853185,14.082801876054095,17.91973851680855,18.586273919215863,11.73336446493904,10.175947867805121,11.786665714410782,18.436686015244472,18.94317615866672
220,-35.069973841992116,0.29372326909303076,0.32450183095339463,3.0,7.0,0.0,38.626421685518444,8.88781187330362,12.654891407277272,0.33460851618641785,0.5156883196937339,-0.7094056010189402,-0.8557044945006186,-0.9339325213381963,-0.4478565561472686,0.43712687302780034,0.6781350877534085,13.122246309592917,15.413791559029107,-0.0896389713053356,-1.941035581320799,-2.931002765955917,3.2202357892227598,14.419604982673114,17.46953776828745
221,-39.119379318097735,0.9494546444283922,0.36533586583332056,4.0,15.0,0.0,43.458445519507684,15.78078743330487,10.143598249177142,0.23300415617330456,-0.3023166616498605,-0.42076844350966813,-0.6930160898883345,-1.2646775426818264,0.31842104689755224,1.5194990957461685,-1.4851814067238363,18.144287983915397,12.714208673496266,11.51268138641121,8.75111063726197,2.9524065255838448,19.010722607116033,31.193975800541956,0.7157039163505186
222,-39.444792806085985,0.998607537943421,0.3470325062439781,4.0,15.0,0.0,44.43283037351087,6.407606016094212,1.2851038561298596,0.003286831697174142,-1.2514513642561258,-0.6283890292960789,0.1556689821330655,0.08074219888411024,0.23745302379377264,-0.038913501476885826,1.7826549679645403,6.4118299361827,4.799361042129691,5.600060851396122,6.607656825313224,6.511368127232585,6.712757812621284,6.3575981252907505,8.698502789574494
223,-37.16742565012121,0.7347993830505396,0.3037260837296746,3.0,15.0,0.0,40.83775729539489,11.596591496833451,10.298755316958935,0.19043879724774404,1.0673218709471333,-0.6684806846290442,-1.0768984602761567,-0.9904830724178691,-0.601705950612636,1.1013192316315255,0.40277666324855227,13.55787407254392,22.5886782901568,4.712072491725733,0.505877753239492,1.395848688412098,5.399769138715736,22.938808789267753,15.744689799011457
224,-40.044207151121036,0.5395770802317108,0.32450183095339463,4.0,15.0,0.0,43.59492569738721,7.2152889719889295,0.492196210443915,0.36917955431151783,-0.7277822876362745,0.20301271529124676,1.257948159488047,1.2190320480801522,0.23308965609681181,0.21727468874664785,-0.7840966113019794,7.396997749594432,6.857077287986152,7.3152110611272105,7.834446289023844,7.815291926463665,7.330014817413455,7.322230750415411,6.82935959128418
225,-39.70289682164534,0.6914661262288758,0.36533586583332056,4.0,15.0,0.0,44.45705268581573,16.98217743275735,5.188415165994769,0.6903802658325526,-0.8053593304669906,-1.088739224196603,-0.272985690566386,-0.6260710381959034,-1.6180935724295953,-1.2746676150933658,0.6949580042988333,20.564156874306466,12.803638868487024,11.333346330122316,15.565814335723157,13.733860963191635,8.586836201564983,10.368672647004548,20.587908081990875
226,-44.011352766997504,0.7434332247970111,0.3470325062439781,3.0,11.0,0.0,48.07766960569229,13.599116424957655,0.1591675597398178,0.7210788172093745,-0.3207005610890466,2.091274876469401,-0.026564346663398013,-0.31667578262831353,1.2344504205546514,0.4360033744371399,-1.1563761019353458,13.713888780672946,13.548071299241922,13.93197954379048,13.59488824272316,13.54871191340801,13.79560088601713,13.66851401810514,13.415058862671163
227,-36.81710184968758,0.9916343809139565,0.3037260837296746,4.0,15.0,0.0,43.27511529360022,16.29749864647986,13.943571811462103,0.5430240345968476,-1.5933066853598796,-1.0094073697535701,-0.017100598802438083,-1.0499491604421194,-0.9752054496299701,0.124206890141344,0.5428063132194194,23.869193268230884,-5.918887538518277,2.2227544993018746,16.05905521905906,1.6574571294708225,2.699651428635182,18.029386338644073,23.866157454569823
228,-39.72695062079802,0.9729946466585028,0.32450183095339463,4.0,15.0,0.0,46.097068765177184,9.741647114868274,2.8153635692374372,0.4283914421981295,-1.3927852020070515,-0.690894758172466,-2.16808638124897,0.0712399795269355,-0.005331402462213725,0.02497331322583711,0.45054757918955424,10.947724774605973,5.820450397364616,7.796527182532404,3.6376957021400944,9.942213557901628,9.726637278603214,9.811956071127451,11.010102355526664
229,-37.962831927534225,0.9976404145760928,0.36533586583332056,3.0,15.0,0.0,41.648302409010704,-3.091029354415214,11.066707134216298,0.10418680136634634,0.1877951702349061,0.2839804427230358,-0.41070034945884737,0.365990680439112,-0.2866252840762445,1.6183973983743816,-0.26410932863849584,-1.9380245364430926,-1.0127552042052144,0.051699037045708884,-7.636129841796567,0.959282319856984,-6.263027430548561,14.819300680171649,-6.013849945871932
